(GCode created using the HeeksCNC Mach3 post processor)
(C:\Users\luigi\Documents\workshop-udla\TEMPLATES\Op_Plane_1.tap)
G21
(G-code Generated with Fabex and NC library)
G17 G90
G43H1
T1M06
(Tool: D = 8.0 mm  type END flutes 2)
S12000 M03
G00 Z10.0

G00 X0 Y0 Z10
G00 X251 Y250
G01 Z-8 F500
G01 X247.681 Y247.316 F1000
G01 X251.721 Y246.098
G01 X254.747 Y248.951
G01 X254.428 Y253.064
G01 X251.293 Y255.713
G01 X247.205 Y255.638
G01 X244.043 Y253.062
G01 X242.974 Y249.136
G01 X244.251 Y245.28
G01 X247.364 Y242.68
G01 X251.359 Y242.007
G01 X255.176 Y243.357
G01 X257.915 Y246.332
G01 X259.012 Y250.221
G01 X258.297 Y254.196
G01 X255.961 Y257.488
G01 X252.476 Y259.521
G01 X248.469 Y259.98
G01 X244.605 Y258.831
G01 X241.476 Y256.292
G01 X239.524 Y252.769
G01 X238.997 Y248.776
G01 X239.935 Y244.861
G01 X242.187 Y241.525
G01 X243.985 Y240.227
G01 X245.45 Y239.17 Z-7.429
G01 X249.315 Y238.056 Z-7.35
G01 X251.814 Y238.2 Z-8
G01 X253.331 Y238.288
G01 X257.05 Y239.817
G01 X260.082 Y242.458
G01 X262.125 Y245.92
G01 X262.991 Y249.845
G01 X262.614 Y253.847
G01 X261.049 Y257.548
G01 X258.455 Y260.616
G01 X255.076 Y262.788
G01 X251.213 Y263.891
G01 X247.197 Y263.846
G01 X243.356 Y262.671
G01 X239.995 Y260.475
G01 X237.366 Y257.439
G01 X235.661 Y253.805
G01 X234.994 Y249.846
G01 X235.401 Y245.852
G01 X236.842 Y242.106
G01 X239.205 Y238.862
G01 X240.376 Y237.913
G01 X242.323 Y236.334 Z-7.176
G01 X245.98 Y234.682 Z-6.434
G01 X249.934 Y234.002 Z-6.926
G01 X253.208 Y234.27 Z-8
G01 X253.934 Y234.329
G01 X257.728 Y235.632
G01 X261.09 Y237.823
G01 X263.821 Y240.761
G01 X265.768 Y244.268
G01 X266.827 Y248.138
G01 X266.944 Y252.147
G01 X266.123 Y256.073
G01 X264.415 Y259.703
G01 X261.921 Y262.843
G01 X258.778 Y265.334
G01 X255.153 Y267.051
G01 X251.237 Y267.913
G01 X247.227 Y267.884
G01 X243.322 Y266.972
G01 X239.712 Y265.228
G01 X236.565 Y262.743
G01 X234.028 Y259.638
G01 X232.214 Y256.063
G01 X231.2 Y252.185
G01 X231.026 Y248.179
G01 X231.694 Y244.227
G01 X233.169 Y240.499
G01 X235.381 Y237.156
G01 X236.571 Y235.98
G01 X238.232 Y234.338 Z-7.284
G01 X241.597 Y232.16 Z-6.276
G01 X245.332 Y230.707 Z-6.127
G01 X249.284 Y230.035 Z-6.245
G01 X253.29 Y230.166 Z-7.482
G01 X254.846 Y230.534 Z-8
G01 X257.19 Y231.089
G01 X260.831 Y232.763
G01 X264.074 Y235.119
G01 X266.795 Y238.061
G01 X268.895 Y241.474
G01 X270.299 Y245.228
G01 X270.959 Y249.18
G01 X270.854 Y253.186
G01 X269.993 Y257.1
G01 X268.412 Y260.782
G01 X266.17 Y264.103
G01 X263.349 Y266.949
G01 X260.05 Y269.224
G01 X256.39 Y270.853
G01 X252.493 Y271.785
G01 X248.491 Y271.991
G01 X244.519 Y271.47
G01 X240.705 Y270.242
G01 X237.174 Y268.35
G01 X234.036 Y265.859
G01 X231.39 Y262.85
G01 X229.317 Y259.422
G01 X227.878 Y255.683
G01 X227.115 Y251.75
G01 X227.048 Y247.745
G01 X227.675 Y243.788
G01 X228.974 Y239.999
G01 X230.904 Y236.488
G01 X233.405 Y233.359
G01 X233.812 Y232.998
G01 X236.401 Y230.7 Z-7.296
G01 X239.804 Y228.586 Z-6.494
G01 X243.513 Y227.075 Z-6.069
G01 X247.424 Y226.207 Z-5.982
G01 X251.425 Y226.004 Z-6.231
G01 X255.403 Y226.468 Z-7.44
G01 X257.119 Y226.966 Z-8
G01 X259.25 Y227.584
G01 X262.861 Y229.318
G01 X266.138 Y231.621
G01 X268.996 Y234.428
G01 X271.359 Y237.662
G01 X273.167 Y241.235
G01 X274.375 Y245.054
G01 X274.955 Y249.017
G01 X274.894 Y253.022
G01 X274.195 Y256.966
G01 X272.88 Y260.749
G01 X270.984 Y264.276
G01 X268.556 Y267.462
G01 X265.659 Y270.227
G01 X262.366 Y272.506
G01 X258.758 Y274.245
G01 X254.925 Y275.405
G01 X250.959 Y275.958
G01 X246.954 Y275.896
G01 X243.007 Y275.22
G01 X239.209 Y273.95
G01 X235.648 Y272.118
G01 X232.406 Y269.767
G01 X229.556 Y266.954
G01 X227.161 Y263.744
G01 X225.275 Y260.212
G01 X223.937 Y256.437
G01 X223.176 Y252.506
G01 X223.006 Y248.505
G01 X223.429 Y244.523
G01 X224.433 Y240.647
G01 X225.996 Y236.96
G01 X228.081 Y233.541
G01 X230.642 Y230.463
G01 X233.623 Y227.789
G01 X235.993 Y226.216
G01 X236.959 Y225.575 Z-7.8
G01 X240.58 Y223.865 Z-6.822
G01 X244.409 Y222.694 Z-5.915
G01 X248.366 Y222.084 Z-5.659
G01 X252.37 Y222.046 Z-5.709
G01 X256.339 Y222.578 Z-6.853
G01 X260.066 Y223.633 Z-8
G01 X260.192 Y223.668
G01 X263.852 Y225.292
G01 X267.246 Y227.417
G01 X270.308 Y229.997
G01 X272.977 Y232.981
G01 X275.204 Y236.308
G01 X276.946 Y239.914
G01 X278.17 Y243.726
G01 X278.854 Y247.671
G01 X278.988 Y251.672
G01 X278.57 Y255.654
G01 X277.609 Y259.541
G01 X276.126 Y263.26
G01 X274.149 Y266.742
G01 X271.718 Y269.923
G01 X268.878 Y272.745
G01 X265.682 Y275.157
G01 X262.191 Y277.116
G01 X258.468 Y278.588
G01 X254.581 Y279.549
G01 X250.601 Y279.981
G01 X246.598 Y279.879
G01 X242.645 Y279.246
G01 X238.811 Y278.095
G01 X235.162 Y276.447
G01 X231.762 Y274.333
G01 X228.669 Y271.791
G01 X225.936 Y268.865
G01 X223.609 Y265.607
G01 X221.727 Y262.074
G01 X220.32 Y258.326
G01 X219.41 Y254.427
G01 X219.012 Y250.444
G01 X219.131 Y246.442
G01 X219.763 Y242.489
G01 X220.898 Y238.65
G01 X222.514 Y234.987
G01 X224.584 Y231.561
G01 X227.073 Y228.426
G01 X229.941 Y225.632
G01 X233.138 Y223.224
G01 X236.615 Y221.239
G01 X237.972 Y220.677
G01 X240.314 Y219.707 Z-7.276
G01 X244.175 Y218.653 Z-5.994
G01 X248.139 Y218.091 Z-5.163
G01 X252.142 Y218.029 Z-5.029
G01 X256.121 Y218.466 Z-5.807
G01 X260.015 Y219.395 Z-6.907
G01 X263.647 Y220.757 Z-8
G01 X263.763 Y220.8
G01 X267.309 Y222.659
G01 X270.597 Y224.941
G01 X273.58 Y227.61
G01 X276.212 Y230.627
G01 X278.455 Y233.943
G01 X280.275 Y237.508
G01 X281.646 Y241.269
G01 X282.549 Y245.169
G01 X282.972 Y249.149
G01 X282.91 Y253.152
G01 X282.364 Y257.117
G01 X281.344 Y260.988
G01 X279.865 Y264.708
G01 X277.951 Y268.223
G01 X275.63 Y271.484
G01 X272.935 Y274.445
G01 X269.907 Y277.062
G01 X266.589 Y279.301
G01 X263.028 Y281.131
G01 X259.277 Y282.526
G01 X255.386 Y283.467
G01 X251.412 Y283.944
G01 X247.409 Y283.949
G01 X243.433 Y283.485
G01 X239.539 Y282.558
G01 X235.78 Y281.183
G01 X232.207 Y279.378
G01 X228.868 Y277.171
G01 X225.809 Y274.59
G01 X223.068 Y271.672
G01 X220.684 Y268.457
G01 X218.686 Y264.989
G01 X217.101 Y261.313
G01 X215.949 Y257.48
G01 X215.244 Y253.54
G01 X214.994 Y249.545
G01 X215.202 Y245.548
G01 X215.864 Y241.6
G01 X216.971 Y237.754
G01 X218.506 Y234.057
G01 X220.451 Y230.559
G01 X222.778 Y227.302
G01 X225.458 Y224.329
G01 X228.455 Y221.676
G01 X231.731 Y219.377
G01 X235.244 Y217.46
G01 X238.707 Y216.046
G01 X238.95 Y215.947 Z-7.918
G01 X242.802 Y214.858 Z-6.584
G01 X246.75 Y214.204 Z-5.197
G01 X250.747 Y213.994 Z-4.53
G01 X254.743 Y214.229 Z-4.545
G01 X258.688 Y214.905 Z-5.413
G01 X262.534 Y216.012 Z-6.443
G01 X266.235 Y217.538 Z-7.495
G01 X267.906 Y218.454 Z-8
G01 X269.744 Y219.461
G01 X273.022 Y221.759
G01 X276.027 Y224.402
G01 X278.725 Y227.359
G01 X281.083 Y230.593
G01 X283.075 Y234.064
G01 X284.677 Y237.732
G01 X285.871 Y241.552
G01 X286.644 Y245.479
G01 X286.987 Y249.467
G01 X286.897 Y253.468
G01 X286.375 Y257.437
G01 X285.43 Y261.326
G01 X284.072 Y265.091
G01 X282.319 Y268.688
G01 X280.19 Y272.078
G01 X277.711 Y275.22
G01 X274.911 Y278.08
G01 X271.823 Y280.625
G01 X268.481 Y282.828
G01 X264.925 Y284.664
G01 X261.194 Y286.113
G01 X257.331 Y287.159
G01 X253.379 Y287.792
G01 X249.383 Y288.005
G01 X245.386 Y287.796
G01 X241.433 Y287.169
G01 X237.568 Y286.132
G01 X233.832 Y284.695
G01 X230.267 Y282.876
G01 X226.911 Y280.696
G01 X223.8 Y278.178
G01 X220.967 Y275.351
G01 X218.443 Y272.245
G01 X216.254 Y268.895
G01 X214.423 Y265.336
G01 X212.969 Y261.607
G01 X211.907 Y257.748
G01 X211.248 Y253.801
G01 X210.997 Y249.807
G01 X211.157 Y245.808
G01 X211.725 Y241.846
G01 X212.694 Y237.963
G01 X214.055 Y234.2
G01 X215.792 Y230.594
G01 X217.886 Y227.184
G01 X220.316 Y224.003
G01 X223.055 Y221.086
G01 X226.075 Y218.46
G01 X229.345 Y216.153
G01 X232.831 Y214.187
G01 X236.497 Y212.582
G01 X238.691 Y211.874
G01 X240.306 Y211.353 Z-7.422
G01 X244.219 Y210.513 Z-6.024
G01 X248.196 Y210.069 Z-4.619
G01 X252.198 Y210.025 Z-4.529
G01 X256.184 Y210.381
G01 X260.115 Y211.132 Z-5.261
G01 X263.952 Y212.271 Z-6.178
G01 X267.656 Y213.786 Z-7.045
G01 X271.192 Y215.66 Z-7.83
G01 X271.984 Y216.187 Z-8
G01 X274.524 Y217.876
G01 X277.621 Y220.411
G01 X280.453 Y223.238
G01 X282.992 Y226.332
G01 X285.214 Y229.66
G01 X287.098 Y233.191
G01 X288.627 Y236.889
G01 X289.786 Y240.72
G01 X290.564 Y244.645
G01 X290.955 Y248.628
G01 X290.956 Y252.63
G01 X290.567 Y256.613
G01 X289.792 Y260.539
G01 X288.64 Y264.372
G01 X287.121 Y268.074
G01 X285.252 Y271.613
G01 X283.048 Y274.953
G01 X280.533 Y278.066
G01 X277.729 Y280.922
G01 X274.664 Y283.494
G01 X271.365 Y285.76
G01 X267.865 Y287.699
G01 X264.194 Y289.294
G01 X260.388 Y290.53
G01 X256.481 Y291.396
G01 X252.509 Y291.886
G01 X248.509 Y291.996
G01 X244.517 Y291.724
G01 X240.568 Y291.074
G01 X236.699 Y290.053
G01 X232.943 Y288.67
G01 X229.336 Y286.937
G01 X225.908 Y284.872
G01 X222.691 Y282.493
G01 X219.711 Y279.821
G01 X216.997 Y276.881
G01 X214.57 Y273.698
G01 X212.453 Y270.303
G01 X210.663 Y266.723
G01 X209.216 Y262.993
G01 X208.123 Y259.143
G01 X207.394 Y255.208
G01 X207.035 Y251.222
G01 X207.048 Y247.221
G01 X207.433 Y243.238
G01 X208.186 Y239.307
G01 X209.299 Y235.463
G01 X210.763 Y231.739
G01 X212.565 Y228.166
G01 X214.689 Y224.775
G01 X217.116 Y221.593
G01 X219.826 Y218.649
G01 X222.795 Y215.965
G01 X225.998 Y213.566
G01 X229.407 Y211.47
G01 X232.993 Y209.695
G01 X236.727 Y208.255
G01 X238.098 Y207.865
G01 X240.576 Y207.162 Z-7.098
G01 X244.509 Y206.424 Z-5.691
G01 X248.493 Y206.047 Z-4.766
G01 X252.495 Y206.034 Z-4.567
G01 X256.481 Y206.385 Z-4.966
G01 X260.419 Y207.095 Z-5.927
G01 X264.277 Y208.159 Z-6.752
G01 X268.022 Y209.568 Z-7.339
G01 X271.625 Y211.309 Z-7.843
G01 X272.952 Y212.105 Z-8
G01 X275.057 Y213.368
G01 X278.288 Y215.727
G01 X281.295 Y218.368
G01 X284.052 Y221.268
G01 X286.538 Y224.404
G01 X288.732 Y227.751
G01 X290.619 Y231.28
G01 X292.182 Y234.963
G01 X293.41 Y238.772
G01 X294.294 Y242.675
G01 X294.826 Y246.641
G01 X295.004 Y250.638
G01 X294.826 Y254.636
G01 X294.294 Y258.602
G01 X293.413 Y262.505
G01 X292.189 Y266.315
G01 X290.634 Y270.002
G01 X288.76 Y273.538
G01 X286.581 Y276.894
G01 X284.115 Y280.045
G01 X281.381 Y282.968
G01 X278.401 Y285.638
G01 X275.198 Y288.037
G01 X271.798 Y290.147
G01 X268.226 Y291.95
G01 X264.51 Y293.435
G01 X260.678 Y294.589
G01 X256.761 Y295.405
G01 X252.787 Y295.876
G01 X248.788 Y296
G01 X244.792 Y295.776
G01 X240.832 Y295.207
G01 X237.009 Y294.313
G01 X236.935 Y294.296 Z-7.979
G01 X233.132 Y293.051 Z-7.322
G01 X229.451 Y291.482 Z-7.709
G01 X228.042 Y290.731 Z-8
G01 X225.919 Y289.601
G01 X222.563 Y287.422
G01 X219.407 Y284.962
G01 X216.474 Y282.24
G01 X213.786 Y279.276
G01 X211.363 Y276.092
G01 X209.221 Y272.711
G01 X207.377 Y269.16
G01 X205.844 Y265.464
G01 X204.632 Y261.651
G01 X203.75 Y257.747
G01 X203.204 Y253.783
G01 X202.997 Y249.787
G01 X203.131 Y245.788
G01 X203.605 Y241.815
G01 X204.414 Y237.896
G01 X205.552 Y234.06
G01 X207.011 Y230.334
G01 X208.78 Y226.745
G01 X210.846 Y223.318
G01 X213.193 Y220.077
G01 X215.806 Y217.046
G01 X218.664 Y214.246
G01 X221.748 Y211.696
G01 X225.035 Y209.414
G01 X228.502 Y207.416
G01 X232.124 Y205.716
G01 X235.875 Y204.324
G01 X236.954 Y204.024
G01 X239.73 Y203.252 Z-6.992
G01 X243.662 Y202.505 Z-5.601
G01 X247.641 Y202.089 Z-5.065
G01 X251.642 Y202.006 Z-4.994
G01 X255.635 Y202.256 Z-5.623
G01 X259.594 Y202.838 Z-6.501
G01 X263.491 Y203.746 Z-7.502
G01 X265.865 Y204.512 Z-8
G01 X267.299 Y204.975
G01 X270.992 Y206.515
G01 X274.545 Y208.356
G01 X277.934 Y210.484
G01 X281.135 Y212.885
G01 X284.126 Y215.542
G01 X286.889 Y218.437
G01 X289.404 Y221.549
G01 X291.654 Y224.858
G01 X293.625 Y228.34
G01 X295.304 Y231.972
G01 X296.678 Y235.73
G01 X297.741 Y239.588
G01 X298.484 Y243.52
G01 X298.903 Y247.499
G01 X298.996 Y251.499
G01 X298.762 Y255.494
G01 X298.204 Y259.456
G01 X297.325 Y263.36
G01 X296.132 Y267.179
G01 X294.632 Y270.888
G01 X292.836 Y274.464
G01 X290.756 Y277.882
G01 X288.407 Y281.121
G01 X285.803 Y284.159
G01 X282.962 Y286.977
G01 X279.903 Y289.557
G01 X276.646 Y291.881
G01 X273.212 Y293.935
G01 X269.624 Y295.706
G01 X265.906 Y297.184
G01 X262.08 Y298.358
G01 X258.173 Y299.221
G01 X254.21 Y299.768
G01 X250.215 Y299.996
G01 X246.215 Y299.904
G01 X242.234 Y299.493
G01 X239.552 Y298.997
G01 X238.3 Y298.766 Z-7.681
G01 X234.436 Y297.727 Z-6.666
G01 X230.667 Y296.383 Z-6.117
G01 X227.017 Y294.744 Z-6.628
G01 X223.508 Y292.82 Z-7.271
G01 X220.164 Y290.624 Z-7.865
G01 X219.363 Y290.002 Z-8
G01 X217.004 Y288.169
G01 X214.049 Y285.471
G01 X211.317 Y282.548
G01 X208.824 Y279.418
G01 X206.587 Y276.101
G01 X204.618 Y272.617
G01 X202.93 Y268.99
G01 X201.533 Y265.24
G01 X200.436 Y261.392
G01 X199.644 Y257.47
G01 X199.163 Y253.498
G01 X199.016 Y249.991
G01 X198.996 Y249.5 Z-7.889
G01 X199.142 Y245.502 Z-7.765
G01 X199.601 Y241.527
G01 X199.748 Y240.774 Z-8
G01 X200.369 Y237.6
G01 X201.442 Y233.745
G01 X202.813 Y229.986
G01 X204.473 Y226.345
G01 X206.411 Y222.845
G01 X208.616 Y219.506
G01 X211.074 Y216.349
G01 X213.771 Y213.393
G01 X216.688 Y210.654
G01 X219.809 Y208.151
G01 X223.115 Y205.896
G01 X226.585 Y203.905
G01 X230.199 Y202.187
G01 X233.935 Y200.754
G01 X235.263 Y200.359
G01 X237.77 Y199.614 Z-7.102
G01 X241.682 Y198.773 Z-5.741
G01 X245.647 Y198.236 Z-5.304
G01 X249.641 Y198.005 Z-5.276
G01 X253.642 Y198.082 Z-5.849
G01 X257.624 Y198.467 Z-6.787
G01 X261.566 Y199.156 Z-7.72
G01 X262.599 Y199.42 Z-8
G01 X265.443 Y200.145
G01 X269.233 Y201.429
G01 X272.913 Y202.998
G01 X276.463 Y204.845
G01 X279.861 Y206.957
G01 X283.088 Y209.323
G01 X286.125 Y211.928
G01 X288.955 Y214.756
G01 X291.561 Y217.792
G01 X293.929 Y221.017
G01 X296.045 Y224.413
G01 X297.898 Y227.96
G01 X299.476 Y231.637
G01 X300.77 Y235.422
G01 X301.775 Y239.295
G01 X302.484 Y243.233
G01 X302.893 Y247.214
G01 X303 Y251.213
G01 X302.806 Y255.21
G01 X302.609 Y256.791
G01 X302.311 Y259.18 Z-7.531
G01 X301.518 Y263.102 Z-7.592
G01 X300.69 Y266.04 Z-8
G01 X300.433 Y266.953
G01 X299.061 Y270.712
G01 X297.411 Y274.357
G01 X295.492 Y277.868
G01 X293.315 Y281.225
G01 X290.894 Y284.41
G01 X288.24 Y287.405
G01 X285.37 Y290.193
G01 X282.3 Y292.759
G01 X279.047 Y295.088
G01 X275.63 Y297.169
G01 X272.067 Y298.989
G01 X268.378 Y300.54
G01 X264.584 Y301.811
G01 X260.707 Y302.797
G01 X256.767 Y303.493
G01 X252.786 Y303.895
G01 X248.786 Y304
G01 X244.789 Y303.809
G01 X243.393 Y303.639
G01 X240.818 Y303.323 Z-7.43
G01 X236.893 Y302.545 Z-6.519
G01 X233.037 Y301.48 Z-5.588
G01 X229.269 Y300.132 Z-4.947
G01 X225.611 Y298.511 Z-5.305
G01 X222.083 Y296.624 Z-5.889
G01 X218.703 Y294.483 Z-6.431
G01 X215.489 Y292.1 Z-6.919
G01 X212.459 Y289.487 Z-7.345
G01 X209.63 Y286.658 Z-7.711
G01 X208.33 Y285.153 Z-8
G01 X207.015 Y283.63
G01 X204.629 Y280.418
G01 X202.484 Y277.04
G01 X200.593 Y273.514
G01 X198.964 Y269.86
G01 X197.606 Y266.096
G01 X196.527 Y262.243
G01 X195.731 Y258.322
G01 X195.223 Y254.354
G01 X195.005 Y250.358
G01 X195.051 Y247.813
G01 X195.078 Y246.358 Z-7.765
G01 X195.441 Y242.374 Z-7.741
G01 X195.979 Y239.12 Z-8
G01 X196.093 Y238.426
G01 X197.03 Y234.536
G01 X198.245 Y230.724
G01 X199.734 Y227.01
G01 X201.487 Y223.414
G01 X203.496 Y219.954
G01 X205.75 Y216.648
G01 X208.236 Y213.513
G01 X210.942 Y210.565
G01 X213.853 Y207.82
G01 X216.954 Y205.292
G01 X220.228 Y202.994
G01 X223.66 Y200.936
G01 X227.231 Y199.131
G01 X230.921 Y197.586
G01 X233.001 Y196.886
G01 X234.713 Y196.31 Z-7.4
G01 X238.587 Y195.308 Z-6.081
G01 X242.523 Y194.587 Z-5.131
G01 X246.5 Y194.149
G01 X250.498 Y193.996 Z-5.518
G01 X254.497 Y194.129 Z-6.619
G01 X258.476 Y194.547 Z-7.602
G01 X260.192 Y194.852 Z-8
G01 X262.415 Y195.248
G01 X266.294 Y196.227
G01 X270.094 Y197.48
G01 X273.795 Y199
G01 X277.379 Y200.779
G01 X280.827 Y202.808
G01 X284.123 Y205.076
G01 X287.25 Y207.573
G01 X290.191 Y210.284
G01 X292.934 Y213.197
G01 X295.464 Y216.297
G01 X297.769 Y219.568
G01 X299.836 Y222.993
G01 X301.657 Y226.556
G01 X303.223 Y230.238
G01 X304.525 Y234.021
G01 X305.558 Y237.886
G01 X306.316 Y241.815
G01 X306.796 Y245.787
G01 X306.997 Y249.783
G01 X306.916 Y253.783
G01 X306.717 Y255.978
G01 X306.555 Y257.768 Z-7.392
G01 X305.916 Y261.717 Z-7.241
G01 X305.003 Y265.613 Z-7.433
G01 X304.461 Y267.36 Z-8
G01 X303.819 Y269.434
G01 X302.37 Y273.164
G01 X300.665 Y276.783
G01 X298.712 Y280.275
G01 X296.519 Y283.622
G01 X294.099 Y286.808
G01 X291.463 Y289.818
G01 X288.624 Y292.637
G01 X285.596 Y295.252
G01 X282.394 Y297.651
G01 X279.033 Y299.821
G01 X275.529 Y301.753
G01 X271.9 Y303.438
G01 X268.164 Y304.868
G01 X264.337 Y306.035
G01 X260.438 Y306.935
G01 X256.487 Y307.564
G01 X252.502 Y307.918
G01 X249.081 Y307.985
G01 X248.502 Y307.997 Z-7.901
G01 X244.505 Y307.799 Z-7.159
G01 X240.532 Y307.327 Z-6.369
G01 X236.601 Y306.583 Z-5.544
G01 X232.731 Y305.57 Z-4.693
G01 X228.939 Y304.293 Z-3.93
G01 X225.244 Y302.76 Z-3.94
G01 X221.662 Y300.976 Z-4.348
G01 X218.212 Y298.951 Z-4.856
G01 X214.908 Y296.694 Z-5.323
G01 X211.767 Y294.216 Z-5.738
G01 X208.802 Y291.529 Z-6.256
G01 X206.028 Y288.646 Z-7.133
G01 X204.09 Y286.334 Z-8
G01 X203.458 Y285.58
G01 X201.102 Y282.346
G01 X198.973 Y278.959
G01 X197.08 Y275.434
G01 X195.431 Y271.789
G01 X194.034 Y268.04
G01 X192.895 Y264.204
G01 X192.019 Y260.3
G01 X191.411 Y256.346
G01 X191.072 Y252.359
G01 X191.005 Y248.359
G01 X191.128 Y245.944
G01 X191.208 Y244.363 Z-7.647
G01 X191.682 Y240.39 Z-7.518
G01 X192.423 Y236.459 Z-7.893
G01 X192.508 Y236.131 Z-8
G01 X193.429 Y232.586
G01 X194.694 Y228.79
G01 X196.212 Y225.089
G01 X197.976 Y221.498
G01 X199.979 Y218.034
G01 X202.21 Y214.713
G01 X204.66 Y211.55
G01 X207.317 Y208.559
G01 X210.169 Y205.753
G01 X213.203 Y203.145
G01 X216.405 Y200.747
G01 X219.761 Y198.568
G01 X223.256 Y196.62
G01 X226.873 Y194.91
G01 X230.123 Y193.632 Z-7.999
G01 X230.596 Y193.446 Z-7.839
G01 X234.409 Y192.234 Z-6.578
G01 X238.295 Y191.28 Z-5.321
G01 X242.235 Y190.587 Z-4.727
G01 X246.213 Y190.159 Z-4.877
G01 X250.211 Y189.998 Z-5.787
G01 X254.21 Y190.103 Z-6.938
G01 X258.194 Y190.474 Z-7.996
G01 X258.209 Y190.476 Z-8
G01 X262.144 Y191.109
G01 X266.043 Y192.006
G01 X269.874 Y193.16
G01 X273.62 Y194.566
G01 X277.264 Y196.217
G01 X280.791 Y198.106
G01 X284.185 Y200.225
G01 X287.431 Y202.564
G01 X290.515 Y205.113
G01 X293.423 Y207.86
G01 X296.144 Y210.793
G01 X298.666 Y213.899
G01 X300.976 Y217.166
G01 X303.066 Y220.577
G01 X304.927 Y224.119
G01 X306.551 Y227.775
G01 X307.93 Y231.531
G01 X309.06 Y235.369
G01 X309.935 Y239.273
G01 X310.551 Y243.226
G01 X310.907 Y247.211
G01 X311 Y251.211
G01 X310.831 Y255.208
G01 X310.687 Y256.541
G01 X310.401 Y259.186 Z-7.199
G01 X309.711 Y263.127 Z-6.966
G01 X308.765 Y267.014 Z-7.436
G01 X308.251 Y268.654 Z-8
G01 X307.567 Y270.832
G01 X306.122 Y274.563
G01 X304.437 Y278.191
G01 X302.519 Y281.702
G01 X300.375 Y285.08
G01 X298.017 Y288.312
G01 X295.453 Y291.383
G01 X292.694 Y294.281
G01 X289.753 Y296.994
G01 X286.642 Y299.509
G01 X283.374 Y301.817
G01 X279.964 Y303.909
G01 X276.424 Y305.775
G01 X272.772 Y307.407
G01 X269.021 Y308.8
G01 X265.188 Y309.947
G01 X261.289 Y310.844
G01 X258.171 Y311.352
G01 X257.34 Y311.487 Z-7.909
G01 X253.358 Y311.874 Z-7.39
G01 X249.36 Y312.003 Z-6.8
G01 X245.361 Y311.874 Z-6.147
G01 X241.379 Y311.487 Z-5.446
G01 X237.43 Y310.844 Z-4.705
G01 X233.53 Y309.949 Z-3.935
G01 X229.697 Y308.805 Z-3.142
G01 X225.944 Y307.417 Z-2.949
G01 X222.289 Y305.79 Z-3.119
G01 X218.746 Y303.933 Z-3.228
G01 X215.329 Y301.851 Z-3.619
G01 X212.052 Y299.555 Z-4.034
G01 X208.93 Y297.054 Z-4.716
G01 X205.974 Y294.358 Z-5.802
G01 X203.196 Y291.479 Z-7.187
G01 X201.664 Y289.671 Z-8
G01 X200.609 Y288.427
G01 X198.221 Y285.217
G01 X196.044 Y281.86
G01 X194.085 Y278.372
G01 X192.353 Y274.766
G01 X190.854 Y271.056
G01 X189.594 Y267.259
G01 X188.579 Y263.389
G01 X187.811 Y259.462
G01 X187.295 Y255.495
G01 X187.033 Y251.503
G01 X187.024 Y247.502
G01 X187.169 Y245.138
G01 X187.269 Y243.509 Z-7.456
G01 X187.766 Y239.539 Z-7.091
G01 X188.515 Y235.609 Z-7.237
G01 X189.184 Y233.004 Z-8
G01 X189.51 Y231.734
G01 X190.749 Y227.93
G01 X192.226 Y224.212
G01 X193.936 Y220.594
G01 X195.87 Y217.092
G01 X198.021 Y213.719
G01 X200.381 Y210.488
G01 X202.94 Y207.413
G01 X205.688 Y204.505
G01 X208.613 Y201.775
G01 X211.704 Y199.236
G01 X214.949 Y196.895
G01 X218.335 Y194.763
G01 X221.847 Y192.848
G01 X225.473 Y191.158
G01 X226.571 Y190.727
G01 X229.198 Y189.698 Z-7.169
G01 X233.007 Y188.474 Z-5.983
G01 X236.886 Y187.492 Z-4.793
G01 X240.818 Y186.754 Z-4.382
G01 X244.789 Y186.264 Z-4.506
G01 X248.782 Y186.023 Z-5.548
G01 X252.783 Y186.032 Z-6.745
G01 X256.775 Y186.291 Z-7.878
G01 X257.235 Y186.35 Z-8
G01 X260.744 Y186.799
G01 X264.673 Y187.553
G01 X268.547 Y188.551
G01 X272.352 Y189.788
G01 X276.072 Y191.26
G01 X279.694 Y192.96
G01 X283.202 Y194.883
G01 X286.585 Y197.019
G01 X289.828 Y199.362
G01 X292.92 Y201.901
G01 X295.848 Y204.627
G01 X298.601 Y207.53
G01 X301.169 Y210.598
G01 X303.543 Y213.818
G01 X305.712 Y217.18
G01 X307.67 Y220.669
G01 X309.408 Y224.272
G01 X310.92 Y227.976
G01 X312.201 Y231.767
G01 X313.245 Y235.629
G01 X314.049 Y239.548
G01 X314.611 Y243.509
G01 X314.927 Y247.497
G01 X314.997 Y251.497
G01 X314.821 Y255.494
G01 X314.739 Y256.267
G01 X314.4 Y259.473 Z-6.909
G01 X313.734 Y263.418 Z-6.54
G01 X312.828 Y267.315 Z-6.962
G01 X311.905 Y270.411 Z-8
G01 X311.685 Y271.149
G01 X310.309 Y274.905
G01 X308.705 Y278.57
G01 X306.879 Y282.13
G01 X304.839 Y285.572
G01 X302.592 Y288.882
G01 X300.147 Y292.049
G01 X297.513 Y295.06
G01 X294.701 Y297.905
G01 X291.719 Y300.573
G01 X288.581 Y303.054
G01 X285.297 Y305.339
G01 X281.88 Y307.42
G01 X278.343 Y309.289
G01 X276.573 Y310.091
G01 X274.698 Y310.94 Z-7.648
G01 X270.96 Y312.365 Z-7.499
G01 X267.142 Y313.561 Z-7.331
G01 X263.258 Y314.522 Z-7.068
G01 X259.324 Y315.246 Z-6.715
G01 X255.352 Y315.73 Z-6.284
G01 X251.359 Y315.972 Z-5.784
G01 X247.358 Z-5.222
G01 X243.365 Y315.73 Z-4.61
G01 X239.393 Y315.246 Z-3.957
G01 X235.459 Y314.522 Z-3.268
G01 X231.575 Y313.563 Z-2.552
G01 X227.756 Y312.37 Z-1.94
G01 X224.016 Y310.949 Z-2.043
G01 X220.369 Y309.304 Z-2.33
G01 X216.828 Y307.443 Z-2.701
G01 X213.405 Y305.371 Z-3.058
G01 X210.113 Y303.098 Z-3.54
G01 X206.965 Y300.629 Z-4.045
G01 X203.97 Y297.976 Z-5.452
G01 X201.14 Y295.148 Z-6.863
G01 X198.992 Y292.725 Z-8
G01 X198.486 Y292.155
G01 X196.016 Y289.007
G01 X193.74 Y285.717
G01 X191.665 Y282.297
G01 X189.799 Y278.758
G01 X188.149 Y275.113
G01 X186.72 Y271.376
G01 X185.517 Y267.561
G01 X184.545 Y263.68
G01 X183.807 Y259.748
G01 X183.304 Y255.779
G01 X183.04 Y251.787
G01 X183.015 Y247.786
G01 X183.201 Y244.301
G01 X183.228 Y243.791 Z-7.821
G01 X183.68 Y239.816 Z-6.711
G01 X184.367 Y235.875 Z-6.567
G01 X185.288 Y231.981 Z-7.15
G01 X186.2 Y228.945 Z-8
G01 X186.439 Y228.15
G01 X187.817 Y224.394
G01 X189.415 Y220.726
G01 X191.228 Y217.16
G01 X193.25 Y213.708
G01 X195.473 Y210.381
G01 X197.889 Y207.193
G01 X200.491 Y204.154
G01 X203.268 Y201.274
G01 X206.211 Y198.563
G01 X209.309 Y196.032
G01 X212.551 Y193.688
G01 X215.926 Y191.541
G01 X219.423 Y189.596
G01 X222.221 Y188.25
G01 X223.028 Y187.861 Z-7.763
G01 X226.729 Y186.343 Z-6.679
G01 X230.513 Y185.045 Z-5.605
G01 X234.368 Y183.973 Z-4.837
G01 X238.279 Y183.129 Z-4.382
G01 X242.232 Y182.518
G01 X246.215 Y182.14 Z-4.787
G01 X250.213 Y181.998 Z-6.008
G01 X254.213 Y182.091 Z-7.193
G01 X257.059 Y182.325 Z-8
G01 X258.2 Y182.418
G01 X262.161 Y182.98
G01 X266.083 Y183.773
G01 X269.951 Y184.794
G01 X273.752 Y186.041
G01 X277.474 Y187.509
G01 X281.103 Y189.192
G01 X284.628 Y191.084
G01 X288.036 Y193.18
G01 X291.315 Y195.472
G01 X294.455 Y197.951
G01 X297.445 Y200.609
G01 X300.274 Y203.438
G01 X302.934 Y206.426
G01 X305.415 Y209.565
G01 X307.708 Y212.843
G01 X309.807 Y216.249
G01 X311.703 Y219.772
G01 X313.392 Y223.399
G01 X314.866 Y227.118
G01 X316.122 Y230.916
G01 X317.155 Y234.781
G01 X317.962 Y238.7
G01 X318.54 Y242.659
G01 X318.887 Y246.644
G01 X319.002 Y250.643
G01 X318.886 Y254.642
G01 X318.805 Y255.565
G01 X318.538 Y258.628 Z-6.955
G01 X317.96 Y262.586 Z-6.078
G01 X317.154 Y266.505 Z-6.134
G01 X316.123 Y270.37 Z-7.21
G01 X315.323 Y272.795 Z-8
G01 X314.87 Y274.17
G01 X313.4 Y277.89
G01 X311.717 Y281.52
G01 X309.827 Y285.046
G01 X307.738 Y288.458
G01 X305.455 Y291.743
G01 X302.987 Y294.892
G01 X300.341 Y297.893
G01 X297.527 Y300.737
G01 X294.554 Y303.414
G01 X291.432 Y305.916
G01 X288.172 Y308.234
G01 X284.784 Y310.362
G01 X281.279 Y312.291
G01 X280.488 Y312.669
G01 X277.669 Y314.016 Z-7.032
G01 X273.967 Y315.531 Z-6.195
G01 X270.183 Y316.831 Z-6.016
G01 X266.332 Y317.913 Z-5.824
G01 X262.424 Y318.772 Z-5.555
G01 X258.474 Y319.407 Z-5.212
G01 X254.494 Y319.814 Z-4.804
G01 X250.498 Y319.993 Z-4.337
G01 X246.497 Y319.944 Z-3.817
G01 X242.506 Y319.666 Z-3.252
G01 X238.538 Y319.161 Z-2.65
G01 X234.604 Y318.43 Z-2.014
G01 X230.719 Y317.476 Z-1.527
G01 X226.894 Y316.302
G01 X223.143 Y314.913 Z-1.7
G01 X219.477 Y313.312 Z-2.082
G01 X215.907 Y311.505 Z-2.485
G01 X212.446 Y309.498 Z-3.086
G01 X209.105 Y307.298 Z-3.591
G01 X205.895 Y304.911 Z-3.987
G01 X202.825 Y302.346 Z-4.626
G01 X199.905 Y299.61 Z-5.959
G01 X197.145 Y296.714 Z-7.36
G01 X195.964 Y295.324 Z-8
G01 X194.554 Y293.666
G01 X192.14 Y290.475
G01 X189.911 Y287.153
G01 X187.873 Y283.711
G01 X186.033 Y280.158
G01 X184.397 Y276.507
G01 X182.97 Y272.77
G01 X181.756 Y268.958
G01 X180.76 Y265.083
G01 X179.984 Y261.159
G01 X179.43 Y257.196
G01 X179.101 Y253.209
G01 X178.997 Y249.21
G01 X179.118 Y245.211
G01 X179.224 Y243.987
G01 X179.464 Y241.226 Z-7.028
G01 X180.034 Y237.266 Z-6.567
G01 X180.826 Y233.344
G01 X181.837 Y229.474 Z-7.139
G01 X182.942 Y226.042 Z-8
G01 X183.064 Y225.666
G01 X184.502 Y221.933
G01 X186.148 Y218.286
G01 X187.996 Y214.738
G01 X190.04 Y211.299
G01 X192.273 Y207.979
G01 X194.689 Y204.791
G01 X197.279 Y201.742
G01 X200.036 Y198.843
G01 X202.951 Y196.103
G01 X206.015 Y193.53
G01 X209.217 Y191.132
G01 X212.548 Y188.917
G01 X215.998 Y186.891
G01 X216.903 Y186.426
G01 X219.556 Y185.061 Z-7.3
G01 X223.21 Y183.432 Z-6.494
G01 X226.949 Y182.009 Z-6.034
G01 X230.761 Y180.797 Z-5.494
G01 X234.635 Y179.798 Z-5.038
G01 X238.559 Y179.017 Z-4.715
G01 X242.52 Y178.456 Z-4.637
G01 X246.506 Y178.115 Z-5.112
G01 X250.505 Y177.997 Z-5.955
G01 X254.504 Y178.101 Z-7.125
G01 X257.615 Y178.355 Z-8
G01 X258.491 Y178.426
G01 X262.455 Y178.973
G01 X266.381 Y179.738
G01 X270.26 Y180.72
G01 X274.078 Y181.915
G01 X277.823 Y183.32
G01 X281.486 Y184.93
G01 X285.053 Y186.74
G01 X288.515 Y188.745
G01 X291.861 Y190.938
G01 X295.081 Y193.313
G01 X298.165 Y195.861
G01 X301.103 Y198.576
G01 X303.887 Y201.449
G01 X306.509 Y204.471
G01 X308.96 Y207.633
G01 X311.233 Y210.925
G01 X313.321 Y214.337
G01 X315.219 Y217.859
G01 X316.92 Y221.481
G01 X318.419 Y225.19
G01 X319.712 Y228.976
G01 X320.795 Y232.827
G01 X321.665 Y236.732
G01 X322.32 Y240.678
G01 X322.757 Y244.655
G01 X322.975 Y248.65
G01 X322.974 Y252.65
G01 X322.886 Y254.256
G01 X322.755 Y256.645 Z-7.225
G01 X322.316 Y260.621 Z-6.181
G01 X321.661 Y264.568 Z-6.078
G01 X320.791 Y268.473
G01 X319.709 Y272.324 Z-7.023
G01 X318.528 Y275.788 Z-8
G01 X318.418 Y276.111
G01 X316.923 Y279.821
G01 X315.226 Y283.445
G01 X313.335 Y286.97
G01 X311.255 Y290.387
G01 X308.991 Y293.685
G01 X306.551 Y296.855
G01 X303.941 Y299.888
G01 X301.171 Y302.774
G01 X298.248 Y305.505
G01 X295.18 Y308.073
G01 X291.978 Y310.471
G01 X288.65 Y312.691
G01 X285.206 Y314.727
G01 X283.942 Y315.385
G01 X281.657 Y316.573 Z-7.25
G01 X278.013 Y318.224 Z-6.065
G01 X274.284 Y319.675 Z-4.989
G01 X270.483 Y320.922 Z-4.569
G01 X266.62 Y321.961 Z-4.383
G01 X262.706 Y322.789 Z-4.131
G01 X258.753 Y323.404 Z-3.817
G01 X254.772 Y323.804 Z-3.444
G01 X250.776 Y323.989 Z-3.019
G01 X246.775 Y323.957 Z-2.548
G01 X242.782 Y323.709 Z-2.035
G01 X238.809 Y323.246 Z-1.681
G01 X234.866 Y322.569 Z-1.709
G01 X230.965 Y321.681 Z-1.527
G01 X227.118 Y320.583
G01 X223.336 Y319.279 Z-1.543
G01 X219.629 Y317.774 Z-1.902
G01 X216.009 Y316.071 Z-2.464
G01 X212.486 Y314.176 Z-3.212
G01 X209.07 Y312.095 Z-3.837
G01 X205.77 Y309.832 Z-4.315
G01 X202.597 Y307.395 Z-4.621
G01 X199.56 Y304.792 Z-4.98
G01 X196.667 Y302.029 Z-5.898
G01 X193.926 Y299.114 Z-7.271
G01 X192.559 Y297.495 Z-8
G01 X191.346 Y296.057
G01 X188.933 Y292.866
G01 X186.694 Y289.55
G01 X184.637 Y286.119
G01 X182.766 Y282.583
G01 X181.088 Y278.952
G01 X179.606 Y275.236
G01 X178.324 Y271.446
G01 X177.248 Y267.593
G01 X176.378 Y263.688
G01 X175.719 Y259.742
G01 X175.271 Y255.767
G01 X175.036 Y251.773
G01 X175.014 Y247.773
G01 X175.183 Y244.235
G01 X175.205 Y243.777 Z-7.842
G01 X175.609 Y239.797 Z-6.809
G01 X176.225 Y235.844 Z-6.572
G01 X177.05 Y231.929 Z-6.731
G01 X178.082 Y228.064 Z-7.803
G01 X178.344 Y227.257 Z-8
G01 X179.318 Y224.259
G01 X180.755 Y220.526
G01 X182.388 Y216.874
G01 X184.213 Y213.313
G01 X186.225 Y209.855
G01 X188.417 Y206.509
G01 X190.783 Y203.283
G01 X193.318 Y200.188
G01 X196.012 Y197.231
G01 X198.86 Y194.421
G01 X201.852 Y191.766
G01 X204.981 Y189.273
G01 X208.237 Y186.948
G01 X210.224 Y185.683
G01 X211.612 Y184.8 Z-7.698
G01 X215.095 Y182.832 Z-6.894
G01 X218.678 Y181.052 Z-6.749
G01 X222.349 Y179.463 Z-6.49
G01 X226.1 Y178.07 Z-6.286
G01 X229.918 Y176.877 Z-6.243
G01 X233.794 Y175.888 Z-6.252
G01 X237.717 Y175.103 Z-6.023
G01 X241.676 Y174.527 Z-5.57
G01 X245.66 Y174.16 Z-5.505
G01 X249.657 Y174.003 Z-5.832
G01 X253.657 Y174.057 Z-6.552
G01 X257.649 Y174.321 Z-7.659
G01 X258.937 Y174.475 Z-8
G01 X261.622 Y174.795
G01 X265.564 Y175.476
G01 X269.464 Y176.364
G01 X273.313 Y177.456
G01 X277.099 Y178.748
G01 X280.813 Y180.237
G01 X284.443 Y181.918
G01 X287.98 Y183.788
G01 X291.414 Y185.84
G01 X294.735 Y188.069
G01 X297.936 Y190.469
G01 X301.007 Y193.033
G01 X303.939 Y195.755
G01 X306.725 Y198.626
G01 X309.357 Y201.638
G01 X311.829 Y204.784
G01 X314.132 Y208.055
G01 X316.262 Y211.441
G01 X318.212 Y214.934
G01 X319.978 Y218.524
G01 X321.554 Y222.201
G01 X322.936 Y225.956
G01 X324.121 Y229.777
G01 X325.105 Y233.654
G01 X325.886 Y237.578
G01 X326.462 Y241.537
G01 X326.832 Y245.52
G01 X326.994 Y249.517
G01 X326.963 Y252.224
G01 X326.948 Y253.518 Z-7.61
G01 X326.695 Y257.51 Z-6.495
G01 X326.234 Y261.484 Z-6.282
G01 X325.569 Y265.429 Z-6.153
G01 X324.699 Y269.334 Z-6.581
G01 X323.628 Y273.188 Z-7.29
G01 X322.363 Y276.972 Z-8
G01 X322.36 Y276.982
G01 X320.896 Y280.705
G01 X319.241 Y284.348
G01 X317.401 Y287.9
G01 X315.379 Y291.352
G01 X313.181 Y294.695
G01 X310.813 Y297.919
G01 X308.282 Y301.017
G01 X305.595 Y303.981
G01 X302.758 Y306.801
G01 X299.779 Y309.472
G01 X296.667 Y311.985
G01 X293.429 Y314.335
G01 X290.074 Y316.515
G01 X288.131 Y317.64
G01 X286.612 Y318.519 Z-7.538
G01 X283.051 Y320.342 Z-6.446
G01 X279.401 Y321.979 Z-5.326
G01 X275.671 Y323.427 Z-4.186
G01 X271.873 Y324.681 Z-3.655
G01 X268.014 Y325.738 Z-3.395
G01 X264.107 Y326.595 Z-2.927
G01 X260.16 Y327.251 Z-2.555
G01 X256.185 Y327.703 Z-2.175
G01 X252.192 Y327.951 Z-1.799
G01 X248.192 Y327.993 Z-1.526
G01 X244.195 Y327.831 Z-1.623
G01 X240.211 Y327.464 Z-1.621
G01 X236.252 Y326.893
G01 X232.326 Y326.12 Z-1.742
G01 X228.446 Y325.147 Z-1.737
G01 X224.62 Y323.978 Z-1.87
G01 X220.859 Y322.614 Z-1.903
G01 X217.173 Y321.059 Z-2.218
G01 X213.571 Y319.318 Z-2.911
G01 X210.063 Y317.396 Z-3.666
G01 X206.657 Y315.297 Z-4.306
G01 X203.363 Y313.027 Z-4.807
G01 X200.189 Y310.592 Z-5.143
G01 X197.143 Y307.998 Z-5.321
G01 X194.234 Y305.252 Z-5.604
G01 X191.468 Y302.362 Z-6.622
G01 X188.853 Y299.335 Z-7.949
G01 X188.76 Y299.215 Z-8
G01 X186.395 Y296.178
G01 X184.101 Y292.901
G01 X181.977 Y289.511
G01 X180.028 Y286.017
G01 X178.259 Y282.429
G01 X176.675 Y278.755
G01 X175.279 Y275.006
G01 X174.075 Y271.191
G01 X173.066 Y267.32
G01 X172.255 Y263.403
G01 X171.644 Y259.449
G01 X171.233 Y255.47
G01 X171.025 Y251.475
G01 X171.02 Y247.474
G01 X171.196 Y243.899
G01 X171.216 Y243.478 Z-7.903
G01 X171.615 Y239.498 Z-7.129
G01 X172.215 Y235.542 Z-6.923
G01 X173.013 Y231.622 Z-7.311
G01 X173.592 Y229.371 Z-8
G01 X174.009 Y227.748
G01 X175.199 Y223.928
G01 X176.581 Y220.174
G01 X178.15 Y216.494
G01 X179.903 Y212.898
G01 X181.835 Y209.395
G01 X183.941 Y205.994
G01 X186.216 Y202.703
G01 X188.653 Y199.531
G01 X191.248 Y196.486
G01 X193.992 Y193.575
G01 X196.879 Y190.806
G01 X199.902 Y188.185
G01 X201.097 Y187.25
G01 X203.053 Y185.72 Z-7.705
G01 X206.323 Y183.416 Z-7.128
G01 X209.705 Y181.279 Z-6.488
G01 X213.19 Y179.315 Z-6.521
G01 X216.77 Y177.528 Z-6.729
G01 X220.434 Y175.923 Z-6.756
G01 X224.174 Y174.504 Z-7.187
G01 X227.981 Y173.274 Z-7.51
G01 X231.845 Y172.237 Z-7.582
G01 X235.755 Y171.394 Z-7.4
G01 X239.703 Y170.748 Z-6.976
G01 X243.679 Y170.3 Z-6.338
G01 X247.672 Y170.052 Z-5.997
G01 X251.672 Y170.004 Z-6.16
G01 X255.67 Y170.156 Z-6.605
G01 X259.655 Y170.507 Z-7.643
G01 X261.103 Y170.708 Z-8
G01 X263.617 Y171.057
G01 X267.547 Y171.804
G01 X271.435 Y172.746
G01 X275.271 Y173.881
G01 X279.046 Y175.206
G01 X282.75 Y176.717
G01 X286.374 Y178.411
G01 X289.909 Y180.284
G01 X293.347 Y182.33
G01 X296.679 Y184.545
G01 X299.896 Y186.923
G01 X302.991 Y189.457
G01 X305.956 Y192.143
G01 X308.784 Y194.972
G01 X311.468 Y197.939
G01 X314.002 Y201.035
G01 X316.378 Y204.253
G01 X318.592 Y207.585
G01 X320.638 Y211.022
G01 X322.512 Y214.557
G01 X324.207 Y218.18
G01 X325.722 Y221.883
G01 X327.051 Y225.657
G01 X328.191 Y229.491
G01 X329.141 Y233.377
G01 X329.897 Y237.306
G01 X330.458 Y241.266
G01 X330.823 Y245.25
G01 X330.99 Y249.247
G01 X330.989 Y249.334
G01 X330.96 Y253.248 Z-6.912
G01 X330.732 Y257.242 Z-6.428
G01 X330.308 Y261.22 Z-6.475
G01 X329.688 Y265.172 Z-6.598
G01 X328.874 Y269.089 Z-7.491
G01 X328.158 Y271.842 Z-8
G01 X327.867 Y272.96
G01 X326.672 Y276.778
G01 X325.289 Y280.532
G01 X323.724 Y284.214
G01 X321.979 Y287.814
G01 X320.059 Y291.323
G01 X317.97 Y294.735
G01 X315.715 Y298.039
G01 X313.3 Y301.229
G01 X310.731 Y304.296
G01 X308.016 Y307.233
G01 X305.159 Y310.033
G01 X302.168 Y312.69
G01 X299.051 Y315.198
G01 X295.814 Y317.549
G01 X293.222 Y319.244
G01 X292.466 Y319.739 Z-7.797
G01 X289.015 Y321.762 Z-6.835
G01 X285.469 Y323.614 Z-5.826
G01 X281.837 Y325.29 Z-4.901
G01 X278.127 Y326.786 Z-4.286
G01 X274.348 Y328.1 Z-3.715
G01 X270.509 Y329.226 Z-3.462
G01 X266.62 Y330.164 Z-2.957
G01 X262.69 Y330.911 Z-2.447
G01 X258.728 Y331.465 Z-1.788
G01 X254.744 Y331.825 Z-1.333
G01 X250.747 Y331.99
G01 X246.747 Y331.96 Z-1.432
G01 X242.752 Y331.735 Z-1.621
G01 X238.774 Y331.316
G01 X234.821 Y330.703 Z-1.933
G01 X230.902 Y329.898 Z-2.416
G01 X227.027 Y328.904 Z-2.734
G01 X223.205 Y327.722 Z-2.873
G01 X219.445 Y326.355 Z-2.829
G01 X215.756 Y324.808 Z-2.786
G01 X212.147 Y323.083 Z-3.064
G01 X208.626 Y321.184 Z-3.777
G01 X205.201 Y319.117 Z-4.46
G01 X201.88 Y316.886 Z-5.021
G01 X198.672 Y314.496 Z-5.439
G01 X195.583 Y311.954 Z-5.676
G01 X192.622 Y309.264 Z-5.747
G01 X189.794 Y306.434 Z-5.938
G01 X187.107 Y303.471 Z-6.745
G01 X184.578 Y300.395 Z-8
G01 X184.566 Y300.381
G01 X182.178 Y297.171
G01 X179.948 Y293.85
G01 X177.882 Y290.424
G01 X175.984 Y286.903
G01 X174.258 Y283.294
G01 X172.709 Y279.605
G01 X171.339 Y275.847
G01 X170.153 Y272.026
G01 X169.153 Y268.153
G01 X168.341 Y264.235
G01 X167.719 Y260.284
G01 X167.288 Y256.306
G01 X167.05 Y252.313
G01 X167.004 Y248.313
G01 X167.151 Y244.315
G01 X167.359 Y241.867
G01 X167.49 Y240.329 Z-7.735
G01 X168.021 Y236.364 Z-7.374
G01 X168.742 Y232.429 Z-7.587
G01 X169.094 Y230.921 Z-8
G01 X169.651 Y228.533
G01 X170.747 Y224.686
G01 X172.027 Y220.895
G01 X173.487 Y217.171
G01 X175.124 Y213.521
G01 X176.935 Y209.954
G01 X178.915 Y206.478
G01 X181.059 Y203.1
G01 X183.363 Y199.83
G01 X185.821 Y196.674
G01 X188.428 Y193.639
G01 X191.177 Y190.733
G01 X191.672 Y190.257
G01 X194.062 Y187.961 Z-7.325
G01 X197.076 Y185.331 Z-6.867
G01 X200.213 Y182.849 Z-6.456
G01 X203.465 Y180.519 Z-5.956
G01 X206.825 Y178.347 Z-5.927
G01 X210.285 Y176.339 Z-6.224
G01 X213.836 Y174.498 Z-6.684
G01 X217.472 Y172.829 Z-7.447
G01 X220.394 Y171.653 Z-8
G01 X221.183 Y171.335
G01 X224.961 Y170.02
G01 X228.798 Y168.887
G01 X232.685 Y167.939
G01 X236.612 Y167.177
G01 X239.979 Y166.688
G01 X240.571 Y166.603 Z-7.915
G01 X244.553 Y166.218 Z-7.143
G01 X248.548 Y166.023 Z-6.361
G01 X252.549 Y166.019 Z-6.364
G01 X256.545 Y166.205 Z-6.399
G01 X260.528 Y166.581 Z-7.142
G01 X264.275 Y167.116 Z-8
G01 X264.488 Y167.147
G01 X268.417 Y167.9
G01 X272.306 Y168.838
G01 X276.145 Y169.961
G01 X279.928 Y171.265
G01 X283.643 Y172.746
G01 X287.285 Y174.403
G01 X290.844 Y176.23
G01 X294.312 Y178.224
G01 X297.681 Y180.38
G01 X300.945 Y182.694
G01 X304.095 Y185.16
G01 X307.125 Y187.772
G01 X310.028 Y190.524
G01 X312.797 Y193.411
G01 X315.427 Y196.426
G01 X317.911 Y199.561
G01 X320.244 Y202.811
G01 X322.421 Y206.167
G01 X324.437 Y209.623
G01 X326.288 Y213.169
G01 X327.969 Y216.799
G01 X329.477 Y220.505
G01 X330.808 Y224.277
G01 X331.96 Y228.108
G01 X332.93 Y231.989
G01 X333.716 Y235.912
G01 X334.317 Y239.867
G01 X334.73 Y243.846
G01 X334.812 Y245.296
G01 X334.956 Y247.84 Z-7.388
G01 X334.993 Y251.84 Z-6.379
G01 X334.842 Y255.838 Z-6.106
G01 X334.504 Y259.824 Z-6.299
G01 X333.978 Y263.79 Z-6.924
G01 X333.267 Y267.727 Z-7.982
G01 X333.249 Y267.803 Z-8
G01 X332.371 Y271.625
G01 X331.294 Y275.478
G01 X330.036 Y279.276
G01 X328.602 Y283.01
G01 X326.994 Y286.673
G01 X325.216 Y290.257
G01 X323.273 Y293.753
G01 X321.167 Y297.155
G01 X318.904 Y300.454
G01 X316.49 Y303.644
G01 X313.928 Y306.717
G01 X311.226 Y309.666
G01 X308.389 Y312.486
G01 X305.423 Y315.171
G01 X302.334 Y317.713
G01 X299.572 Y319.779
G01 X299.13 Y320.109 Z-7.904
G01 X295.818 Y322.352 Z-7.118
G01 X292.405 Y324.439 Z-6.259
G01 X288.898 Y326.363 Z-5.66
G01 X285.305 Y328.122 Z-5.337
G01 X281.633 Y329.711 Z-4.824
G01 X277.892 Y331.128 Z-4.51
G01 X274.089 Y332.368 Z-4.337
G01 X270.232 Y333.43 Z-3.977
G01 X266.33 Y334.311 Z-3.431
G01 X262.391 Y335.009 Z-2.718
G01 X258.423 Y335.523 Z-1.884
G01 X254.436 Y335.852 Z-1.333
G01 X250.439 Y335.995
G01 X246.438 Y335.952 Z-1.662
G01 X242.445 Y335.723 Z-2.233
G01 X238.466 Y335.309 Z-2.638
G01 X234.51 Y334.71 Z-2.867
G01 X230.587 Y333.928 Z-3.228
G01 X226.704 Y332.965 Z-3.599
G01 X222.87 Y331.823 Z-3.792
G01 X219.093 Y330.504 Z-3.796
G01 X215.382 Y329.011 Z-3.611
G01 X211.744 Y327.348 Z-3.484
G01 X208.186 Y325.518 Z-3.681
G01 X204.717 Y323.526 Z-4.249
G01 X201.345 Y321.374 Z-4.883
G01 X198.075 Y319.069 Z-5.4
G01 X194.916 Y316.615 Z-5.784
G01 X191.874 Y314.017 Z-5.996
G01 X188.955 Y311.282 Z-5.962
G01 X186.165 Y308.414 Z-5.886
G01 X183.511 Y305.421 Z-6.318
G01 X180.999 Y302.308 Z-7.499
G01 X179.974 Y300.912 Z-8
G01 X178.632 Y299.082
G01 X176.418 Y295.751
G01 X174.359 Y292.321
G01 X172.461 Y288.8
G01 X170.727 Y285.194
G01 X169.162 Y281.513
G01 X167.767 Y277.763
G01 X166.547 Y273.954
G01 X165.504 Y270.092
G01 X164.64 Y266.186
G01 X163.956 Y262.244
G01 X163.455 Y258.275
G01 X163.137 Y254.287
G01 X163.002 Y250.289
G01 X163.052 Y246.289
G01 X163.285 Y242.295
G01 X163.701 Y238.317
G01 X164.3 Y234.361
G01 X165.079 Y230.438
G01 X166.038 Y226.554
G01 X167.174 Y222.718
G01 X168.485 Y218.939
G01 X169.968 Y215.223
G01 X171.619 Y211.579
G01 X173.436 Y208.015
G01 X175.414 Y204.538
G01 X177.549 Y201.155
G01 X179.837 Y197.873
G01 X182.272 Y194.7
G01 X184.851 Y191.641
G01 X187.566 Y188.703
G01 X188.888 Y187.398
G01 X190.413 Y185.893 Z-7.271
G01 X193.385 Y183.215 Z-6.142
G01 X196.476 Y180.676 Z-5.341
G01 X199.68 Y178.281 Z-4.934
G01 X202.991 Y176.034 Z-5.252
G01 X206.4 Y173.941 Z-5.806
G01 X209.901 Y172.006 Z-6.769
G01 X213.487 Y170.233 Z-7.813
G01 X214.243 Y169.9 Z-8
G01 X217.15 Y168.624
G01 X220.882 Y167.185
G01 X224.676 Y165.916
G01 X228.524 Y164.822
G01 X232.418 Y163.905
G01 X236.349 Y163.165
G01 X240.31 Y162.605
G01 X244.293 Y162.226
G01 X244.568 Y162.213
G01 X248.288 Y162.029 Z-7.058
G01 X252.289 Y162.013 Z-6.303
G01 X256.286 Y162.179 Z-6.131
G01 X260.271 Y162.526 Z-6.245
G01 X264.236 Y163.054 Z-7.091
G01 X268.174 Y163.762 Z-7.863
G01 X268.96 Y163.94 Z-8
G01 X272.075 Y164.647
G01 X275.932 Y165.708
G01 X279.737 Y166.944
G01 X283.482 Y168.35
G01 X287.159 Y169.925
G01 X290.761 Y171.665
G01 X294.281 Y173.566
G01 X297.711 Y175.625
G01 X301.045 Y177.836
G01 X304.275 Y180.197
G01 X307.394 Y182.701
G01 X310.398 Y185.343
G01 X313.279 Y188.119
G01 X316.031 Y191.022
G01 X316.637 Y191.721
G01 X318.65 Y194.046 Z-7.239
G01 X321.129 Y197.185 Z-7.159
G01 X323.464 Y200.434 Z-7.921
G01 X323.701 Y200.796 Z-8
G01 X325.65 Y203.784
G01 X327.683 Y207.229
G01 X329.559 Y210.763
G01 X331.273 Y214.377
G01 X332.822 Y218.066
G01 X334.204 Y221.82
G01 X335.415 Y225.633
G01 X336.453 Y229.496
G01 X337.316 Y233.402
G01 X338.003 Y237.343
G01 X338.295 Y239.619
G01 X338.512 Y241.311 Z-7.679
G01 X338.841 Y245.298 Z-6.848
G01 X338.992 Y249.295 Z-5.955
G01 X338.962 Y253.296 Z-5.589
G01 X338.753 Y257.291 Z-5.857
G01 X338.364 Y261.272 Z-6.67
G01 X337.797 Y265.232 Z-7.884
G01 X337.721 Y265.636 Z-8
G01 X337.053 Y269.163
G01 X336.133 Y273.056
G01 X335.04 Y276.904
G01 X333.775 Y280.699
G01 X332.341 Y284.434
G01 X330.742 Y288.101
G01 X328.98 Y291.692
G01 X327.058 Y295.201
G01 X324.982 Y298.62
G01 X322.754 Y301.943
G01 X320.381 Y305.163
G01 X317.865 Y308.273
G01 X315.213 Y311.268
G01 X312.43 Y314.142
G01 X309.521 Y316.888
G01 X308.361 Y317.889
G01 X306.492 Y319.502 Z-7.721
G01 X303.35 Y321.977 Z-7.155
G01 X300.1 Y324.31 Z-6.494
G01 X296.75 Y326.496 Z-6.059
G01 X293.305 Y328.53 Z-6.033
G01 X289.773 Y330.408 Z-5.732
G01 X286.161 Y332.127 Z-5.598
G01 X282.475 Y333.683 Z-5.794
G01 X278.724 Y335.074 Z-5.816
G01 X274.915 Y336.296 Z-5.618
G01 X271.055 Y337.347 Z-5.209
G01 X267.152 Y338.225 Z-4.609
G01 X263.214 Y338.929 Z-3.844
G01 X259.249 Y339.457 Z-2.94
G01 X255.264 Y339.808 Z-2.024
G01 X251.267 Y339.982 Z-1.853
G01 X247.267 Y339.977 Z-2.548
G01 X243.271 Y339.795 Z-3.202
G01 X239.287 Y339.436 Z-3.695
G01 X235.322 Y338.9 Z-4.007
G01 X231.386 Y338.189 Z-4.126
G01 X227.484 Y337.304 Z-4.267
G01 X223.626 Y336.246 Z-4.567
G01 X219.819 Y335.019 Z-4.678
G01 X216.07 Y333.624 Z-4.592
G01 X212.386 Y332.064 Z-4.315
G01 X208.775 Y330.342 Z-3.99
G01 X205.244 Y328.462 Z-4.041
G01 X201.799 Y326.428 Z-4.35
G01 X198.448 Y324.243 Z-4.954
G01 X195.197 Y321.912 Z-5.446
G01 X192.052 Y319.44 Z-5.808
G01 X189.02 Y316.831 Z-5.998
G01 X186.105 Y314.09 Z-5.87
G01 X183.315 Y311.223 Z-5.607
G01 X180.654 Y308.236 Z-5.594
G01 X178.128 Y305.134 Z-6.525
G01 X175.741 Y301.924 Z-7.596
G01 X174.86 Y300.622 Z-8
G01 X173.499 Y298.611
G01 X171.404 Y295.203
G01 X169.462 Y291.706
G01 X167.676 Y288.126
G01 X166.05 Y284.471
G01 X164.586 Y280.748
G01 X163.287 Y276.965
G01 X162.157 Y273.127
G01 X161.197 Y269.244
G01 X160.408 Y265.322
G01 X159.793 Y261.369
G01 X159.352 Y257.393
G01 X159.087 Y253.401
G01 X158.997 Y249.402
G01 X159.084 Y245.403
G01 X159.345 Y241.411
G01 X159.782 Y237.434
G01 X160.393 Y233.481
G01 X161.177 Y229.558
G01 X162.133 Y225.673
G01 X163.258 Y221.835
G01 X164.55 Y218.049
G01 X166.007 Y214.323
G01 X167.626 Y210.665
G01 X169.403 Y207.081
G01 X171.336 Y203.578
G01 X173.42 Y200.164
G01 X175.652 Y196.844
G01 X178.027 Y193.625
G01 X180.54 Y190.513
G01 X183.188 Y187.513
G01 X185.963 Y184.633
G01 X186.529 Y184.095
G01 X188.862 Y181.876 Z-6.865
G01 X191.879 Y179.249 Z-5.45
G01 X195.008 Y176.756 Z-4.682
G01 X198.242 Y174.402
G01 X201.576 Y172.191 Z-5.127
G01 X205.004 Y170.128 Z-6.374
G01 X208.518 Y168.217 Z-7.571
G01 X209.909 Y167.537 Z-8
G01 X212.112 Y166.461
G01 X215.78 Y164.863
G01 X219.513 Y163.426
G01 X223.306 Y162.154
G01 X227.15 Y161.047
G01 X231.039 Y160.11
G01 X234.965 Y159.342
G01 X238.921 Y158.747
G01 X242.899 Y158.323
G01 X246.891 Y158.074
G01 X247.247 Y158.067
G01 X250.891 Y157.998 Z-6.944
G01 X254.89 Y158.096 Z-6.035
G01 X258.881 Y158.368 Z-5.677
G01 X262.857 Y158.812 Z-5.817
G01 X266.81 Y159.43 Z-6.57
G01 X270.731 Y160.218 Z-7.233
G01 X274.616 Y161.175 Z-7.935
G01 X274.881 Y161.253 Z-8
G01 X278.454 Y162.301
G01 X282.241 Y163.591
G01 X285.968 Y165.045
G01 X289.628 Y166.659
G01 X293.215 Y168.43
G01 X296.722 Y170.355
G01 X300.142 Y172.43
G01 X303.469 Y174.651
G01 X306.697 Y177.014
G01 X309.82 Y179.514
G01 X312.831 Y182.148
G01 X315.726 Y184.909
G01 X316.983 Y186.215
G01 X318.499 Y187.792 Z-7.47
G01 X321.144 Y190.793 Z-6.448
G01 X323.658 Y193.905 Z-5.925
G01 X326.034 Y197.123 Z-6.47
G01 X328.27 Y200.441 Z-7.143
G01 X330.36 Y203.852 Z-7.724
G01 X331.486 Y205.881 Z-8
G01 X332.3 Y207.35
G01 X334.089 Y210.928
G01 X335.721 Y214.58
G01 X337.194 Y218.3
G01 X338.505 Y222.079
G01 X339.653 Y225.911
G01 X340.634 Y229.789
G01 X340.829 Y230.73
G01 X341.447 Y233.706 Z-7.623
G01 X342.091 Y237.654 Z-7.022
G01 X342.564 Y241.627 Z-6.333
G01 X342.866 Y245.616 Z-5.572
G01 X342.996 Y249.614 Z-4.909
G01 X342.954 Y253.614 Z-5.097
G01 X342.74 Y257.609 Z-5.767
G01 X342.354 Y261.591 Z-7.087
G01 X341.958 Y264.415 Z-8
G01 X341.798 Y265.552
G01 X341.072 Y269.486
G01 X340.178 Y273.385
G01 X339.117 Y277.242
G01 X337.892 Y281.05
G01 X336.504 Y284.802
G01 X334.957 Y288.491
G01 X333.253 Y292.111
G01 X331.396 Y295.654
G01 X329.388 Y299.114
G01 X327.234 Y302.485
G01 X324.937 Y305.76
G01 X323.66 Y307.425
G01 X322.503 Y308.934 Z-7.66
G01 X319.934 Y312.001 Z-7.383
G01 X317.237 Y314.956 Z-7.317
G01 X314.416 Y317.792 Z-7.124
G01 X311.476 Y320.505 Z-6.81
G01 X308.423 Y323.09 Z-6.385
G01 X305.262 Y325.542 Z-5.861
G01 X301.999 Y327.856 Z-5.678
G01 X298.641 Y330.029 Z-5.806
G01 X295.192 Y332.057 Z-6.054
G01 X291.66 Y333.936 Z-6.278
G01 X288.052 Y335.662 Z-6.786
G01 X284.373 Y337.233 Z-7.078
G01 X280.63 Y338.645 Z-7.136
G01 X276.83 Y339.896 Z-6.957
G01 X272.981 Y340.985 Z-6.551
G01 X269.088 Y341.908 Z-5.943
G01 X265.16 Y342.664 Z-5.161
G01 X261.203 Y343.253 Z-4.237
G01 X257.225 Y343.672 Z-3.199
G01 X253.232 Y343.922 Z-2.743
G01 X249.233 Y344.002 Z-3.106
G01 X245.233 Y343.911 Z-3.885
G01 X241.242 Y343.65 Z-4.517
G01 X237.264 Y343.22 Z-4.975
G01 X233.309 Y342.621 Z-5.242
G01 X229.383 Y341.855 Z-5.305
G01 X225.493 Y340.922 Z-5.207
G01 X221.646 Y339.825 Z-5.366
G01 X217.849 Y338.566 Z-5.447
G01 X214.109 Y337.147 Z-5.322
G01 X210.432 Y335.57 Z-5.001
G01 X206.826 Y333.839 Z-4.504
G01 X203.296 Y331.956 Z-4.342
G01 X199.849 Y329.925 Z-4.402
G01 X196.492 Y327.751 Z-4.689
G01 X193.23 Y325.435 Z-5.17
G01 X190.068 Y322.984 Z-5.517
G01 X187.014 Y320.401 Z-5.694
G01 X184.071 Y317.691 Z-5.66
G01 X181.246 Y314.859 Z-5.424
G01 X178.543 Y311.909 Z-5.131
G01 X175.968 Y308.849 Z-5.195
G01 X173.524 Y305.681 Z-6.179
G01 X171.216 Y302.414 Z-7.139
G01 X169.143 Y299.198 Z-8
G01 X169.048 Y299.052
G01 X167.025 Y295.601
G01 X165.149 Y292.068
G01 X163.424 Y288.459
G01 X161.852 Y284.78
G01 X160.438 Y281.038
G01 X159.182 Y277.239
G01 X158.088 Y273.392
G01 X157.157 Y269.501
G01 X156.391 Y265.575
G01 X155.792 Y261.62
G01 X155.359 Y257.643
G01 X155.094 Y253.651
G01 X154.998 Y249.652
G01 X155.07 Y245.652
G01 X155.31 Y241.659
G01 X155.718 Y237.68
G01 X156.294 Y233.721
G01 X157.035 Y229.79
G01 X157.94 Y225.893
G01 X159.009 Y222.038
G01 X160.239 Y218.232
G01 X161.627 Y214.48
G01 X163.172 Y210.79
G01 X164.871 Y207.168
G01 X166.72 Y203.621
G01 X168.716 Y200.154
G01 X170.856 Y196.774
G01 X173.135 Y193.487
G01 X175.551 Y190.298
G01 X178.098 Y187.213
G01 X180.772 Y184.238
G01 X183.568 Y181.377
G01 X183.773 Y181.184
G01 X186.482 Y178.636 Z-6.69
G01 X189.507 Y176.019 Z-5.282
G01 X192.64 Y173.531 Z-4.682
G01 X195.874 Y171.177
G01 X199.204 Y168.96 Z-5.328
G01 X202.623 Y166.884 Z-6.628
G01 X206.127 Y164.952 Z-7.883
G01 X206.478 Y164.777 Z-8
G01 X209.707 Y163.169
G01 X213.36 Y161.537
G01 X217.077 Y160.059
G01 X220.853 Y158.738
G01 X224.681 Y157.575
G01 X228.553 Y156.573
G01 X232.465 Y155.734
G01 X236.408 Y155.058
G01 X240.375 Y154.548
G01 X244.361 Y154.203
G01 X248.357 Y154.025
G01 X248.92 Y154.023
G01 X252.357 Y154.013 Z-6.933
G01 X256.355 Y154.168 Z-5.68
G01 X260.342 Y154.489 Z-5.159
G01 X264.313 Y154.976 Z-5.144
G01 X268.26 Y155.628 Z-5.698
G01 X272.176 Y156.444 Z-6.288
G01 X276.055 Y157.422 Z-6.953
G01 X279.89 Y158.56 Z-7.792
G01 X280.933 Y158.917 Z-8
G01 X283.674 Y159.857
G01 X287.402 Y161.31
G01 X291.065 Y162.916
G01 X294.659 Y164.673
G01 X298.176 Y166.578
G01 X301.612 Y168.628
G01 X304.959 Y170.818
G01 X308.213 Y173.145
G01 X311.367 Y175.606
G01 X314.417 Y178.195
G01 X316.141 Y179.785
G01 X317.357 Y180.908 Z-7.682
G01 X320.181 Y183.74 Z-6.834
G01 X322.886 Y186.688 Z-5.922
G01 X325.467 Y189.745 Z-4.989
G01 X327.918 Y192.906 Z-4.846
G01 X330.237 Y196.165 Z-5.471
G01 X332.419 Y199.519 Z-6.047
G01 X334.46 Y202.959 Z-6.534
G01 X336.357 Y206.481 Z-6.922
G01 X338.106 Y210.078 Z-7.2
G01 X339.706 Y213.745 Z-7.357
G01 X341.152 Y217.475 Z-7.389
G01 X342.443 Y221.261 Z-7.387
G01 X343.577 Y225.097 Z-7.239
G01 X344.551 Y228.977 Z-6.87
G01 X345.364 Y232.894 Z-6.381
G01 X346.015 Y236.841 Z-6.05
G01 X346.503 Y240.812 Z-5.498
G01 X346.826 Y244.799 Z-5.001
G01 X346.984 Y248.796 Z-4.763
G01 X346.977 Y252.796
G01 X346.806 Y256.793 Z-5.588
G01 X346.47 Y260.779 Z-6.948
G01 X346.076 Y263.903 Z-8
G01 X345.97 Y264.748
G01 X345.307 Y268.693
G01 X344.482 Y272.608
G01 X343.496 Y276.485
G01 X342.352 Y280.318
G01 X341.051 Y284.101
G01 X339.596 Y287.827
G01 X337.988 Y291.49
G01 X336.231 Y295.084
G01 X334.329 Y298.603
G01 X332.283 Y302.04
G01 X330.097 Y305.391
G01 X327.776 Y308.649
G01 X327.173 Y309.426
G01 X325.323 Y311.809 Z-7.063
G01 X322.742 Y314.866 Z-6.281
G01 X320.038 Y317.814 Z-5.978
G01 X317.216 Y320.649 Z-5.82
G01 X314.279 Y323.365 Z-5.764
G01 X311.234 Y325.959 Z-5.507
G01 X308.085 Y328.426 Z-5.34
G01 X304.837 Y330.762
G01 X301.497 Y332.962 Z-5.729
G01 X298.069 Y335.024 Z-6.385
G01 X294.559 Y336.944 Z-7.198
G01 X290.974 Y338.719 Z-7.832
G01 X289.507 Y339.372 Z-8
G01 X287.319 Y340.346
G01 X283.601 Y341.821
G01 X279.825 Y343.143
G01 X276.012 Y344.306
G01 X275.999 Y344.31 Z-7.998
G01 X272.128 Y345.319 Z-7.433
G01 X268.219 Y346.17 Z-6.677
G01 X264.279 Y346.859 Z-5.764
G01 X260.313 Y347.388 Z-4.73
G01 X256.33 Y347.754 Z-3.67
G01 X252.335 Y347.956 Z-3.474
G01 X248.335 Y347.996 Z-4.156
G01 X244.336 Y347.873 Z-4.961
G01 X240.346 Y347.586 Z-5.618
G01 X236.371 Y347.137 Z-6.097
G01 X232.418 Y346.526 Z-6.375
G01 X228.492 Y345.754 Z-6.437
G01 X224.602 Y344.824 Z-6.277
G01 X220.752 Y343.735 Z-6.033
G01 X216.951 Y342.491 Z-6.112
G01 X213.203 Y341.093 Z-6.003
G01 X209.515 Y339.543 Z-5.687
G01 X205.893 Y337.844 Z-5.191
G01 X202.343 Y336 Z-4.546
G01 X198.871 Y334.013 Z-4.456
G01 X195.483 Y331.886 Z-4.469
G01 X192.184 Y329.623 Z-4.692
G01 X188.98 Y327.228 Z-4.987
G01 X185.876 Y324.705 Z-5.215
G01 X182.877 Y322.057 Z-5.277
G01 X179.988 Y319.29 Z-5.165
G01 X177.213 Y316.409 Z-4.893
G01 X174.558 Y313.416 Z-4.763
G01 X172.027 Y310.319
G01 X169.623 Y307.121 Z-5.396
G01 X167.351 Y303.829 Z-6.255
G01 X165.214 Y300.447 Z-7.053
G01 X163.217 Y296.981 Z-7.771
G01 X162.528 Y295.666 Z-8
G01 X161.361 Y293.437
G01 X159.65 Y289.821
G01 X158.088 Y286.139
G01 X156.675 Y282.396
G01 X155.416 Y278.599
G01 X154.311 Y274.754
G01 X153.363 Y270.868
G01 X152.572 Y266.947
G01 X151.941 Y262.996
G01 X151.47 Y259.024
G01 X151.16 Y255.035
G01 X151.012 Y251.038
G01 X151.025 Y247.038
G01 X151.2 Y243.041
G01 X151.535 Y239.055
G01 X152.032 Y235.086
G01 X152.689 Y231.139
G01 X153.504 Y227.223
G01 X154.476 Y223.343
G01 X155.604 Y219.505
G01 X156.886 Y215.715
G01 X158.32 Y211.981
G01 X159.903 Y208.307
G01 X161.632 Y204.7
G01 X163.506 Y201.165
G01 X165.52 Y197.709
G01 X167.672 Y194.337
G01 X169.958 Y191.054
G01 X172.374 Y187.866
G01 X174.917 Y184.777
G01 X177.581 Y181.794
G01 X180.364 Y178.919
G01 X180.794 Y178.509
G01 X183.259 Y176.159 Z-6.973
G01 X186.263 Y173.518 Z-5.854
G01 X189.371 Y170.999 Z-4.824
G01 X192.578 Y168.607 Z-4.696
G01 X195.878 Y166.346 Z-5.02
G01 X199.266 Y164.22 Z-6.335
G01 X202.737 Y162.23 Z-7.636
G01 X203.758 Y161.698 Z-8
G01 X206.284 Y160.382
G01 X209.903 Y158.678
G01 X213.588 Y157.12
G01 X217.332 Y155.711
G01 X221.129 Y154.453
G01 X224.974 Y153.348
G01 X228.86 Y152.398
G01 X232.781 Y151.605
G01 X236.73 Y150.969
G01 X240.702 Y150.492
G01 X244.69 Y150.174
G01 X248.687 Y150.016
G01 X249.846 Y150.017
G01 X252.687 Y150.019 Z-7.09
G01 X256.684 Y150.181 Z-5.777
G01 X260.672 Y150.502 Z-5.106
G01 X264.643 Y150.983 Z-4.965
G01 X268.592 Y151.622 Z-4.85
G01 X272.512 Y152.419 Z-5.115
G01 X276.398 Y153.371 Z-5.658
G01 X280.242 Y154.477 Z-6.43
G01 X284.039 Y155.737 Z-7.124
G01 X287.782 Y157.146 Z-7.725
G01 X289.849 Y158.02 Z-8
G01 X291.467 Y158.704
G01 X295.086 Y160.408
G01 X298.635 Y162.255
G01 X302.107 Y164.241
G01 X305.497 Y166.365
G01 X308.8 Y168.622
G01 X312.01 Y171.009
G01 X312.697 Y171.563
G01 X315.123 Y173.521 Z-7.596
G01 X318.133 Y176.156 Z-6.973
G01 X321.036 Y178.908 Z-6.259
G01 X323.827 Y181.774 Z-5.471
G01 X326.502 Y184.748 Z-4.767
G01 X329.057 Y187.827 Z-4.652
G01 X331.487 Y191.005
G01 X333.788 Y194.276 Z-4.882
G01 X335.958 Y197.637 Z-5.212
G01 X337.993 Y201.081 Z-5.363
G01 X339.889 Y204.604 Z-5.631
G01 X341.644 Y208.199 Z-6.137
G01 X343.255 Y211.86 Z-6.614
G01 X344.719 Y215.583 Z-7.005
G01 X346.034 Y219.361 Z-7.271
G01 X347.198 Y223.188 Z-7.151
G01 X348.21 Y227.058 Z-6.786
G01 X349.067 Y230.966 Z-6.288
G01 X349.768 Y234.904 Z-6.07
G01 X350.313 Y238.867 Z-5.767
G01 X350.701 Y242.849 Z-5.327
G01 X350.93 Y246.842 Z-4.865
G01 X351.001 Y250.842 Z-4.763
G01 X350.914 Y254.842 Z-5.004
G01 X350.668 Y258.834 Z-6.23
G01 X350.265 Y262.814 Z-7.592
G01 X350.095 Y264.014 Z-8
G01 X349.704 Y266.775
G01 X348.987 Y270.711
G01 X348.115 Y274.615
G01 X347.09 Y278.481
G01 X345.912 Y282.304
G01 X344.584 Y286.078
G01 X343.108 Y289.796
G01 X341.487 Y293.453
G01 X339.722 Y297.043
G01 X337.817 Y300.56
G01 X335.774 Y304
G01 X333.598 Y307.356
G01 X331.29 Y310.624
G01 X330.131 Y312.136
G01 X328.856 Y313.798 Z-7.293
G01 X326.298 Y316.874 Z-5.949
G01 X323.621 Y319.847 Z-5.495
G01 X320.829 Y322.712 Z-5.519
G01 X317.927 Y325.464 Z-5.699
G01 X314.918 Y328.1 Z-5.562
G01 X311.807 Y330.616 Z-5.34
G01 X308.6 Y333.007
G01 X305.302 Y335.27 Z-5.676
G01 X301.916 Y337.402 Z-6.76
G01 X298.45 Y339.398 Z-7.732
G01 X297.292 Y340.006 Z-8
G01 X294.908 Y341.257
G01 X291.295 Y342.975
G01 X287.618 Y344.55
G01 X283.881 Y345.979
G01 X280.092 Y347.26
G01 X276.255 Y348.391
G01 X272.376 Y349.37
G01 X270.709 Y349.722
G01 X268.462 Y350.197 Z-7.506
G01 X264.519 Y350.869 Z-6.504
G01 X260.552 Y351.386 Z-5.395
G01 X256.568 Y351.747 Z-4.39
G01 X252.573 Y351.951 Z-4.221
G01 X248.573 Y351.998 Z-4.867
G01 X244.574 Y351.889 Z-5.74
G01 X240.583 Y351.623 Z-6.471
G01 X236.605 Y351.201 Z-7.029
G01 X232.646 Y350.623 Z-7.385
G01 X228.714 Y349.89 Z-7.514
G01 X224.813 Y349.005 Z-7.405
G01 X220.949 Y347.967 Z-7.068
G01 X217.13 Y346.778 Z-6.674
G01 X213.359 Y345.441 Z-6.61
G01 X209.644 Y343.958 Z-6.352
G01 X205.99 Y342.33 Z-5.902
G01 X202.402 Y340.561 Z-5.372
G01 X198.886 Y338.653 Z-4.865
G01 X195.448 Y336.609 Z-4.552
G01 X192.091 Y334.432 Z-4.654
G01 X188.823 Y332.126 Z-4.675
G01 X185.647 Y329.694 Z-4.577
G01 X182.568 Y327.139 Z-4.695
G01 X179.592 Y324.467 Z-4.718
G01 X176.722 Y321.68 Z-4.682
G01 X173.963 Y318.783 Z-4.758
G01 X171.319 Y315.781 Z-4.763
G01 X168.794 Y312.678
G01 X166.392 Y309.48 Z-5.204
G01 X164.117 Y306.189 Z-5.697
G01 X161.971 Y302.813 Z-6.157
G01 X159.959 Y299.356 Z-6.471
G01 X158.083 Y295.823 Z-7
G01 X156.346 Y292.219 Z-7.457
G01 X154.75 Y288.551 Z-7.794
G01 X153.299 Y284.823 Z-7.999
G01 X153.29 Y284.798 Z-8
G01 X151.993 Y281.042
G01 X151.05 Y277.922
G01 X150.836 Y277.213 Z-7.985
G01 X149.829 Y273.341 Z-7.766
G01 X148.973 Y269.434 Z-7.448
G01 X148.269 Y265.496 Z-7.677
G01 X147.719 Y261.533 Z-7.924
G01 X147.324 Y257.553 Z-7.993
G01 X147.314 Y257.386 Z-8
G01 X147.083 Y253.559
G01 X146.998 Y249.56
G01 X147.068 Y245.56
G01 X147.293 Y241.566
G01 X147.673 Y237.584
G01 X148.207 Y233.62
G01 X148.895 Y229.679
G01 X149.735 Y225.768
G01 X150.726 Y221.892
G01 X151.867 Y218.058
G01 X153.155 Y214.271
G01 X154.589 Y210.536
G01 X156.167 Y206.86
G01 X157.885 Y203.248
G01 X159.743 Y199.705
G01 X161.736 Y196.237
G01 X163.862 Y192.848
G01 X166.117 Y189.544
G01 X168.499 Y186.33
G01 X171.003 Y183.21
G01 X173.626 Y180.19
G01 X176.363 Y177.273
G01 X179.212 Y174.464
G01 X180.101 Y173.652
G01 X182.166 Y171.767 Z-7.315
G01 X185.223 Y169.187 Z-6.214
G01 X188.377 Y166.726 Z-5.133
G01 X191.623 Y164.389
G01 X194.958 Y162.179 Z-5.481
G01 X198.375 Y160.1 Z-6.803
G01 X201.592 Y158.308 Z-8
G01 X201.87 Y158.153
G01 X205.437 Y156.343
G01 X209.072 Y154.672
G01 X212.768 Y153.142
G01 X216.521 Y151.756
G01 X220.324 Y150.516
G01 X224.172 Y149.423
G01 X228.059 Y148.479
G01 X231.98 Y147.685
G01 X235.928 Y147.043
G01 X239.899 Y146.553
G01 X243.885 Y146.217
G01 X247.881 Y146.034
G01 X250.286 Y146.017
G01 X251.881 Y146.005 Z-7.521
G01 X255.879 Y146.13 Z-6.573
G01 X259.87 Y146.408 Z-5.78
G01 X263.847 Y146.84 Z-5.003
G01 X267.804 Y147.424 Z-4.61
G01 X271.736 Y148.16 Z-4.323
G01 X275.637 Y149.046 Z-4.215
G01 X279.501 Y150.081 Z-4.852
G01 X283.323 Y151.264 Z-5.519
G01 X287.096 Y152.593 Z-6.106
G01 X290.815 Y154.065 Z-6.601
G01 X294.476 Y155.679 Z-6.991
G01 X298.071 Y157.433 Z-7.264
G01 X301.597 Y159.323 Z-7.412
G01 X305.048 Y161.346 Z-7.428
G01 X308.418 Y163.501 Z-7.312
G01 X311.704 Y165.783 Z-7.069
G01 X314.899 Y168.189 Z-6.706
G01 X318.001 Y170.716 Z-6.236
G01 X321.003 Y173.359 Z-5.717
G01 X323.902 Y176.116 Z-5.218
G01 X326.693 Y178.982 Z-5.039
G01 X329.372 Y181.952 Z-4.834
G01 X331.936 Y185.023 Z-4.652
G01 X334.38 Y188.189
G01 X336.702 Y191.447 Z-4.905
G01 X338.897 Y194.791 Z-5.169
G01 X340.963 Y198.217 Z-5.333
G01 X342.897 Y201.719 Z-5.362
G01 X344.695 Y205.292 Z-5.755
G01 X346.356 Y208.931 Z-6.415
G01 X347.876 Y212.631 Z-6.929
G01 X349.255 Y216.387 Z-7.331
G01 X350.488 Y220.192 Z-7.477
G01 X351.576 Y224.042 Z-7.432
G01 X352.516 Y227.93 Z-7.159
G01 X353.307 Y231.851 Z-6.669
G01 X353.948 Y235.8 Z-6.344
G01 X354.438 Y239.77 Z-6.287
G01 X354.776 Y243.756 Z-6.019
G01 X354.962 Y247.752 Z-5.558
G01 X354.995 Y251.752 Z-5.179
G01 X354.877 Y255.751 Z-5.375
G01 X354.606 Y259.742 Z-6.314
G01 X354.183 Y263.72 Z-7.664
G01 X354.039 Y264.713 Z-8
G01 X353.61 Y267.679
G01 X352.886 Y271.613
G01 X352.013 Y275.517
G01 X350.992 Y279.384
G01 X349.824 Y283.211
G01 X348.512 Y286.99
G01 X347.058 Y290.716
G01 X345.463 Y294.385
G01 X343.729 Y297.99
G01 X341.86 Y301.527
G01 X339.858 Y304.99
G01 X337.726 Y308.375
G01 X335.467 Y311.676
G01 X333.416 Y314.443
G01 X333.084 Y314.889 Z-7.814
G01 X330.582 Y318.01 Z-6.465
G01 X327.962 Y321.033 Z-5.376
G01 X325.23 Y323.955 Z-5.327
G01 X322.389 Y326.772 Z-5.539
G01 X319.443 Y329.478 Z-5.679
G01 X316.397 Y332.071 Z-5.493
G01 X313.255 Y334.547 Z-5.42
G01 X310.021 Y336.901 Z-5.481
G01 X306.701 Y339.132 Z-6.579
G01 X303.298 Y341.236 Z-7.712
G01 X302.324 Y341.788 Z-8
G01 X299.818 Y343.209
G01 X296.266 Y345.049
G01 X292.647 Y346.753
G01 X288.966 Y348.319
G01 X285.229 Y349.745
G01 X281.44 Y351.028
G01 X277.605 Y352.168
G01 X273.73 Y353.161
G01 X269.82 Y354.008
G01 X268.013 Y354.328
G01 X265.882 Y354.706 Z-7.427
G01 X261.919 Y355.255 Z-6.272
G01 X257.939 Y355.654 Z-5.053
G01 X253.946 Y355.902 Z-4.796
G01 X249.947 Y356 Z-5.173
G01 X245.947 Y355.946 Z-6.14
G01 X241.952 Y355.742 Z-6.989
G01 X237.968 Y355.387 Z-7.682
G01 X235.465 Y355.069 Z-8
G01 X233.999 Y354.882
G01 X230.053 Y354.228
G01 X226.134 Y353.426
G01 X222.248 Y352.477
G01 X220.143 Y351.878
G01 X218.4 Y351.381 Z-7.789
G01 X214.597 Y350.142 Z-7.144
G01 X210.843 Y348.761 Z-6.932
G01 X207.143 Y347.239 Z-6.681
G01 X203.504 Y345.578 Z-6.56
G01 X199.929 Y343.783 Z-6.471
G01 X196.425 Y341.853 Z-6.162
G01 X192.996 Y339.794 Z-5.649
G01 X189.646 Y337.607 Z-4.956
G01 X186.381 Y335.295 Z-4.602
G01 X183.206 Y332.863 Z-4.299
G01 X180.124 Y330.313 Z-4.07
G01 X177.139 Y327.648 Z-4.167
G01 X174.258 Y324.874 Z-4.442
G01 X171.482 Y321.993 Z-4.733
G01 X168.816 Y319.011 Z-4.901
G01 X166.265 Y315.93 Z-5.357
G01 X163.831 Y312.755 Z-5.658
G01 X161.517 Y309.492 Z-5.903
G01 X159.328 Y306.144 Z-6.125
G01 X157.265 Y302.716 Z-6.41
G01 X155.333 Y299.214 Z-6.337
G01 X153.533 Y295.641 Z-6.209
G01 X151.869 Y292.003 Z-6.268
G01 X150.342 Y288.306 Z-6.512
G01 X148.954 Y284.554 Z-6.638
G01 X147.708 Y280.753 Z-6.644
G01 X146.606 Y276.908 Z-6.53
G01 X145.648 Y273.024 Z-6.31
G01 X144.836 Y269.107 Z-6.544
G01 X144.171 Y265.162 Z-6.878
G01 X143.654 Y261.195 Z-7.066
G01 X143.286 Y257.212 Z-7.182
G01 X143.067 Y253.218 Z-7.767
G01 X143.051 Y252.304 Z-8
G01 X142.998 Y249.218
G01 X143.078 Y245.219
G01 X143.308 Y241.225
G01 X143.686 Y237.243
G01 X144.213 Y233.277
G01 X144.888 Y229.334
G01 X145.71 Y225.419
G01 X146.677 Y221.538
G01 X147.788 Y217.695
G01 X149.042 Y213.896
G01 X150.437 Y210.147
G01 X151.971 Y206.452
G01 X153.641 Y202.817
G01 X155.446 Y199.247
G01 X157.382 Y195.747
G01 X159.448 Y192.321
G01 X161.64 Y188.975
G01 X163.955 Y185.712
G01 X166.389 Y182.538
G01 X168.941 Y179.457
G01 X171.605 Y176.473
G01 X174.378 Y173.59
G01 X177.257 Y170.813
G01 X180.092 Y168.274
G01 X180.237 Y168.144 Z-7.946
G01 X183.314 Y165.588 Z-6.741
G01 X186.484 Y163.148 Z-5.481
G01 X189.743 Y160.828 Z-5.378
G01 X193.085 Y158.631 Z-5.532
G01 X196.507 Y156.559 Z-6.72
G01 X199.987 Y154.625 Z-8
G01 X200.004 Y154.615
G01 X203.57 Y152.803
G01 X207.201 Y151.125
G01 X210.892 Y149.582
G01 X214.638 Y148.178
G01 X218.433 Y146.914
G01 X222.272 Y145.791
G01 X226.151 Y144.811
G01 X230.063 Y143.976
G01 X234.003 Y143.287
G01 X237.967 Y142.744
G01 X241.947 Y142.348
G01 X245.94 Y142.1
G01 X249.939 Y142
G01 X253.939 Y142.048
G01 X254.159 Y142.059
G01 X257.934 Y142.245 Z-7.339
G01 X261.92 Y142.589 Z-6.471
G01 X265.89 Y143.08 Z-5.469
G01 X269.839 Y143.718 Z-4.405
G01 X273.762 Y144.502 Z-3.982
G01 X277.653 Y145.43
G01 X281.507 Y146.501 Z-4.141
G01 X285.319 Y147.714 Z-4.458
G01 X289.083 Y149.067 Z-4.86
G01 X292.795 Y150.559 Z-5.293
G01 X296.449 Y152.186 Z-5.632
G01 X300.041 Y153.948 Z-5.868
G01 X303.565 Y155.84 Z-5.997
G01 X307.017 Y157.862 Z-6.012
G01 X310.392 Y160.01 Z-5.916
G01 X313.685 Y162.281 Z-5.93
G01 X316.893 Y164.671 Z-6.109
G01 X320.009 Y167.179 Z-6.006
G01 X323.032 Y169.799 Z-5.668
G01 X325.955 Y172.53 Z-5.272
G01 X328.776 Y175.366 Z-5.084
G01 X331.491 Y178.304 Z-5.072
G01 X334.095 Y181.341 Z-5.296
G01 X336.586 Y184.471 Z-5.705
G01 X338.96 Y187.691 Z-5.909
G01 X341.213 Y190.996 Z-5.898
G01 X343.344 Y194.381 Z-5.675
G01 X345.348 Y197.843 Z-5.366
G01 X347.224 Y201.377 Z-5.815
G01 X348.968 Y204.977 Z-6.749
G01 X350.579 Y208.638 Z-7.552
G01 X351.639 Y211.312 Z-8
G01 X352.054 Y212.357
G01 X353.391 Y216.127
G01 X354.588 Y219.944
G01 X355.645 Y223.802
G01 X356.559 Y227.696
G01 X356.934 Y229.606
G01 X357.329 Y231.622 Z-7.702
G01 X357.955 Y235.573 Z-7.245
G01 X358.435 Y239.544 Z-7.154
G01 X358.769 Y243.531 Z-6.852
G01 X358.957 Y247.526 Z-6.351
G01 X358.998 Y251.526 Z-5.737
G01 X358.892 Y255.525 Z-5.69
G01 X358.639 Y259.518 Z-5.941
G01 X358.24 Y263.498 Z-7.171
G01 X357.894 Y266.012 Z-8
G01 X357.695 Y267.461
G01 X357.006 Y271.401
G01 X356.172 Y275.314
G01 X355.196 Y279.193
G01 X354.078 Y283.034
G01 X352.821 Y286.831
G01 X351.425 Y290.58
G01 X349.892 Y294.275
G01 X348.226 Y297.912
G01 X346.427 Y301.485
G01 X344.5 Y304.99
G01 X342.445 Y308.422
G01 X340.266 Y311.777
G01 X337.965 Y315.05
G01 X337.055 Y316.249
G01 X335.547 Y318.236 Z-7.184
G01 X333.014 Y321.332 Z-5.864
G01 X330.369 Y324.334 Z-5.039
G01 X327.616 Y327.236 Z-5.089
G01 X324.76 Y330.036 Z-5.336
G01 X321.803 Y332.73 Z-5.404
G01 X318.749 Y335.315 Z-5.258
G01 X315.603 Y337.786 Z-5.265
G01 X312.369 Y340.14 Z-5.753
G01 X309.052 Y342.375 Z-7.013
G01 X306.256 Y344.114 Z-8
G01 X305.655 Y344.488
G01 X302.183 Y346.475
G01 X298.641 Y348.334
G01 X295.034 Y350.063
G01 X291.366 Y351.66
G01 X287.642 Y353.121
G01 X283.867 Y354.446
G01 X280.047 Y355.633
G01 X276.186 Y356.679
G01 X272.29 Y357.585
G01 X268.363 Y358.347
G01 X266.514 Y358.637
G01 X264.411 Y358.967 Z-7.373
G01 X260.439 Y359.442 Z-6.129
G01 X256.452 Y359.773 Z-5.318
G01 X252.456 Y359.958 Z-5.294
G01 X248.456 Y359.998 Z-6.061
G01 X244.458 Y359.892 Z-7.042
G01 X240.465 Y359.641 Z-7.903
G01 X239.922 Y359.587 Z-8
G01 X236.485 Y359.245
G01 X232.521 Y358.705
G01 X228.58 Y358.021
G01 X224.666 Y357.194
G01 X220.784 Y356.226
G01 X216.941 Y355.118
G01 X214.127 Y354.194
G01 X213.14 Y353.87 Z-7.819
G01 X209.387 Y352.486 Z-7.47
G01 X205.686 Y350.966 Z-7.816
G01 X202.043 Y349.314 Z-7.985
G01 X198.463 Y347.53 Z-7.907
G01 X194.949 Y345.617 Z-7.588
G01 X191.508 Y343.579 Z-7.049
G01 X188.142 Y341.417 Z-6.32
G01 X184.857 Y339.134 Z-5.432
G01 X181.657 Y336.734 Z-4.476
G01 X178.545 Y334.22 Z-4.024
G01 X175.527 Y331.594
G01 X172.606 Y328.861 Z-4.196
G01 X169.786 Y326.024 Z-4.865
G01 X167.07 Y323.087 Z-5.657
G01 X164.462 Y320.054 Z-6.29
G01 X161.966 Y316.928 Z-6.737
G01 X159.584 Y313.714 Z-6.972
G01 X157.321 Y310.416 Z-6.984
G01 X155.178 Y307.038 Z-6.77
G01 X153.158 Y303.585 Z-6.467
G01 X151.265 Y300.061 Z-6.234
G01 X149.5 Y296.471 Z-5.807
G01 X147.866 Y292.82 Z-5.395
G01 X146.364 Y289.112 Z-5.145
G01 X144.998 Y285.352 Z-5.236
G01 X143.768 Y281.546 Z-5.229
G01 X142.677 Y277.697 Z-5.118
G01 X141.725 Y273.812 Z-5.169
G01 X140.914 Y269.895 Z-5.591
G01 X140.245 Y265.951 Z-5.899
G01 X139.718 Y261.985 Z-6.078
G01 X139.335 Y258.004 Z-6.405
G01 X139.095 Y254.011 Z-7.322
G01 X139.033 Y251.405 Z-8
G01 X139 Y250.011
G01 X139.048 Y246.011
G01 X139.241 Y242.016
G01 X139.578 Y238.03
G01 X140.058 Y234.058
G01 X140.68 Y230.107
G01 X141.445 Y226.18
G01 X142.35 Y222.284
G01 X143.395 Y218.422
G01 X144.578 Y214.601
G01 X145.897 Y210.825
G01 X147.352 Y207.098
G01 X148.94 Y203.427
G01 X150.658 Y199.814
G01 X152.506 Y196.266
G01 X154.479 Y192.787
G01 X156.577 Y189.38
G01 X158.795 Y186.052
G01 X161.132 Y182.805
G01 X163.583 Y179.644
G01 X166.146 Y176.573
G01 X168.818 Y173.596
G01 X171.595 Y170.716
G01 X174.474 Y167.938
G01 X177.45 Y165.266
G01 X179.262 Y163.753
G01 X180.52 Y162.701 Z-7.475
G01 X183.681 Y160.249 Z-6.145
G01 X186.927 Y157.911 Z-5.505
G01 X190.254 Y155.691 Z-5.448
G01 X193.66 Y153.592 Z-6.106
G01 X197.138 Y151.616 Z-7.362
G01 X198.982 Y150.653 Z-8
G01 X200.684 Y149.765
G01 X204.295 Y148.043
G01 X207.965 Y146.452
G01 X211.69 Y144.992
G01 X215.464 Y143.667
G01 X219.283 Y142.478
G01 X223.143 Y141.426
G01 X227.037 Y140.513
G01 X230.962 Y139.74
G01 X234.912 Y139.107
G01 X238.882 Y138.616
G01 X242.867 Y138.268
G01 X246.862 Y138.061
G01 X250.862 Y137.998
G01 X254.861 Y138.077
G01 X258.856 Y138.3
G01 X259.921 Y138.397
G01 X262.839 Y138.664 Z-7.286
G01 X266.807 Y139.171 Z-6.194
G01 X270.755 Y139.819 Z-5.014
G01 X274.676 Y140.607 Z-3.986
G01 X278.568 Y141.535 Z-3.982
G01 X282.423 Y142.601 Z-4.183
G01 X286.239 Y143.803 Z-4.396
G01 X290.008 Y145.141 Z-4.23
G01 X293.728 Y146.612 Z-4.05
G01 X297.393 Y148.215 Z-4.183
G01 X300.999 Y149.948 Z-4.416
G01 X304.541 Y151.808 Z-4.557
G01 X308.014 Y153.792 Z-4.719
G01 X311.414 Y155.899 Z-5.153
G01 X314.737 Y158.126 Z-5.588
G01 X317.979 Y160.47 Z-5.929
G01 X321.135 Y162.927 Z-6.149
G01 X324.202 Y165.496 Z-6.119
G01 X327.176 Y168.171 Z-6.037
G01 X330.053 Y170.951 Z-5.889
G01 X332.829 Y173.831 Z-5.686
G01 X335.5 Y176.809 Z-6.217
G01 X338.065 Y179.879 Z-6.806
G01 X340.518 Y183.038 Z-7.193
G01 X342.858 Y186.283 Z-7.355
G01 X345.082 Y189.608 Z-7.283
G01 X347.185 Y193.011 Z-6.98
G01 X349.167 Y196.486 Z-6.539
G01 X351.024 Y200.029 Z-6.807
G01 X352.754 Y203.636 Z-7.727
G01 X353.256 Y204.785 Z-8
G01 X354.355 Y207.301
G01 X355.825 Y211.022
G01 X357.162 Y214.792
G01 X358.365 Y218.607
G01 X359.431 Y222.463
G01 X360.36 Y226.353
G01 X361.151 Y230.275
G01 X361.802 Y234.222
G01 X362.189 Y237.22
G01 X362.314 Y238.189 Z-7.962
G01 X362.684 Y242.172 Z-7.685
G01 X362.913 Y246.166 Z-7.195
G01 X363 Y250.165 Z-6.528
G01 X362.946 Y254.165 Z-5.963
G01 X362.751 Y258.161 Z-5.941
G01 X362.414 Y262.147 Z-6.158
G01 X361.936 Y266.118 Z-7.422
G01 X361.648 Y267.958 Z-8
G01 X361.318 Y270.07
G01 X360.561 Y273.998
G01 X359.665 Y277.897
G01 X358.632 Y281.762
G01 X357.464 Y285.587
G01 X356.16 Y289.369
G01 X354.724 Y293.103
G01 X353.157 Y296.784
G01 X351.462 Y300.407
G01 X349.639 Y303.967
G01 X347.691 Y307.462
G01 X345.622 Y310.885
G01 X343.433 Y314.233
G01 X341.127 Y317.502
G01 X341.091 Y317.55
G01 X338.708 Y320.688 Z-6.765
G01 X336.177 Y323.786 Z-5.491
G01 X333.539 Y326.793 Z-4.927
G01 X330.797 Y329.705 Z-4.916
G01 X327.954 Y332.519
G01 X325.013 Y335.231 Z-5.002
G01 X321.979 Y337.838 Z-4.912
G01 X318.854 Y340.336 Z-4.934
G01 X315.644 Y342.722 Z-5.611
G01 X312.352 Y344.994 Z-6.912
G01 X309.45 Y346.85 Z-8
G01 X308.981 Y347.149
G01 X305.537 Y349.184
G01 X302.024 Y351.096
G01 X298.445 Y352.884
G01 X294.806 Y354.545
G01 X291.11 Y356.076
G01 X287.363 Y357.477
G01 X283.569 Y358.745
G01 X279.733 Y359.879
G01 X275.86 Y360.878
G01 X271.953 Y361.74
G01 X268.019 Y362.464
G01 X265.838 Y362.787
G01 X264.062 Y363.049 Z-7.442
G01 X260.087 Y363.496 Z-6.155
G01 X256.098 Y363.802 Z-5.686
G01 X252.102 Y363.968 Z-5.731
G01 X248.101 Y363.994 Z-6.519
G01 X244.103 Y363.88 Z-7.534
G01 X242.058 Y363.749 Z-8
G01 X240.111 Y363.625
G01 X236.13 Y363.231
G01 X232.165 Y362.697
G01 X228.222 Y362.025
G01 X224.305 Y361.214
G01 X220.418 Y360.267
G01 X216.567 Y359.185
G01 X212.757 Y357.968
G01 X208.991 Y356.619
G01 X205.275 Y355.138
G01 X201.612 Y353.528
G01 X198.009 Y351.792
G01 X194.468 Y349.93
G01 X190.995 Y347.945
G01 X188.094 Y346.15
G01 X187.594 Y345.84 Z-7.893
G01 X184.268 Y343.617 Z-6.996
G01 X181.021 Y341.28 Z-5.964
G01 X177.859 Y338.83 Z-4.831
G01 X174.784 Y336.272 Z-4.024
G01 X171.8 Y333.607 Z-4.143
G01 X168.911 Y330.84 Z-5.085
G01 X166.121 Y327.974 Z-6.037
G01 X163.433 Y325.012 Z-6.857
G01 X160.849 Y321.958 Z-7.512
G01 X158.374 Y318.815 Z-7.968
G01 X158.045 Y318.366 Z-8
G01 X156.01 Y315.588
G01 X153.76 Y312.281
G01 X152.279 Y309.932
G01 X151.627 Y308.897 Z-7.92
G01 X149.613 Y305.44 Z-7.436
G01 X147.72 Y301.916 Z-6.756
G01 X145.952 Y298.328 Z-5.92
G01 X144.311 Y294.68 Z-5.196
G01 X142.797 Y290.977 Z-4.526
G01 X141.413 Y287.224 Z-4.047
G01 X140.161 Y283.425 Z-3.824
G01 X139.042 Y279.584 Z-3.747
G01 X138.057 Y275.707 Z-4.042
G01 X137.208 Y271.798 Z-4.461
G01 X136.496 Y267.861 Z-4.777
G01 X135.921 Y263.903 Z-4.981
G01 X135.484 Y259.926 Z-5.426
G01 X135.186 Y255.937 Z-6.448
G01 X135.027 Y251.94 Z-7.473
G01 X135.016 Y249.725 Z-8
G01 X135.007 Y247.94
G01 X135.126 Y243.942
G01 X135.384 Y239.95
G01 X135.78 Y235.969
G01 X136.315 Y232.005
G01 X136.987 Y228.061
G01 X137.796 Y224.144
G01 X138.74 Y220.257
G01 X139.819 Y216.405
G01 X141.031 Y212.592
G01 X142.374 Y208.824
G01 X143.848 Y205.105
G01 X145.45 Y201.44
G01 X147.177 Y197.832
G01 X149.029 Y194.286
G01 X151.003 Y190.807
G01 X153.097 Y187.398
G01 X155.307 Y184.064
G01 X157.631 Y180.808
G01 X160.067 Y177.635
G01 X162.612 Y174.549
G01 X165.261 Y171.552
G01 X168.013 Y168.649
G01 X170.864 Y165.843
G01 X173.811 Y163.137
G01 X176.849 Y160.535
G01 X177.869 Y159.721
G01 X179.975 Y158.039 Z-7.076
G01 X183.186 Y155.654 Z-5.685
G01 X186.478 Y153.38 Z-5.236
G01 X189.846 Y151.222
G01 X193.287 Y149.182 Z-6.224
G01 X196.796 Y147.262 Z-7.416
G01 X198.605 Y146.353 Z-8
G01 X200.37 Y145.465
G01 X204.004 Y143.792
G01 X207.693 Y142.245
G01 X211.433 Y140.827
G01 X215.221 Y139.54
G01 X219.05 Y138.383
G01 X222.917 Y137.36
G01 X226.817 Y136.47
G01 X230.746 Y135.716
G01 X234.698 Y135.098
G01 X238.669 Y134.617
G01 X242.655 Y134.273
G01 X246.65 Y134.066
G01 X250.649 Y133.998
G01 X254.649 Y134.067
G01 X258.644 Y134.274
G01 X262.629 Y134.619
G01 X263.601 Y134.737
G01 X266.6 Y135.101 Z-7.128
G01 X270.552 Y135.72 Z-5.898
G01 X274.481 Y136.474 Z-4.945
G01 X278.381 Y137.363 Z-4.753
G01 X282.248 Y138.386 Z-4.685
G01 X286.078 Y139.541 Z-4.466
G01 X289.866 Y140.828 Z-4.271
G01 X293.607 Y142.244 Z-3.934
G01 X297.297 Y143.788 Z-3.589
G01 X300.932 Y145.458 Z-3.318
G01 X304.507 Y147.252
G01 X308.019 Y149.168 Z-3.959
G01 X311.463 Y151.204 Z-4.634
G01 X314.834 Y153.357 Z-5.287
G01 X318.13 Y155.624 Z-5.998
G01 X321.346 Y158.003 Z-6.659
G01 X324.478 Y160.491 Z-7.128
G01 X327.522 Y163.086 Z-7.383
G01 X330.476 Y165.783 Z-7.407
G01 X333.336 Y168.581 Z-7.199
G01 X336.098 Y171.475 Z-6.95
G01 X338.759 Y174.461 Z-7.518
G01 X340.664 Y176.754 Z-8
G01 X341.315 Y177.538
G01 X343.765 Y180.7
G01 X346.105 Y183.945
G01 X348.332 Y187.268
G01 X350.444 Y190.665
G01 X351.8 Y193.023
G01 X352.438 Y194.133 Z-7.821
G01 X354.312 Y197.667 Z-7.643
G01 X355.263 Y199.619 Z-8
G01 X356.064 Y201.263
G01 X357.692 Y204.917
G01 X359.193 Y208.625
G01 X360.567 Y212.382
G01 X361.811 Y216.184
G01 X362.924 Y220.026
G01 X363.905 Y223.904
G01 X364.753 Y227.814
G01 X365.466 Y231.75
G01 X366.045 Y235.708
G01 X366.487 Y239.684
G01 X366.794 Y243.672
G01 X366.809 Y244.036
G01 X366.964 Y247.669 Z-7.44
G01 X366.997 Y251.669 Z-6.672
G01 X366.893 Y255.668 Z-5.921
G01 X366.653 Y259.661 Z-5.766
G01 X366.276 Y263.643 Z-5.913
G01 X365.764 Y267.61 Z-7.109
G01 X365.267 Y270.638 Z-8
G01 X365.116 Y271.558
G01 X364.334 Y275.481
G01 X363.418 Y279.375
G01 X362.37 Y283.236
G01 X361.191 Y287.058
G01 X359.882 Y290.838
G01 X358.445 Y294.571
G01 X356.882 Y298.253
G01 X355.193 Y301.88
G01 X353.382 Y305.447
G01 X351.451 Y308.95
G01 X349.401 Y312.385
G01 X347.235 Y315.748
G01 X345.526 Y318.213
G01 X344.956 Y319.036 Z-7.716
G01 X342.567 Y322.244 Z-6.726
G01 X340.069 Y325.368 Z-5.851
G01 X337.466 Y328.406 Z-5.007
G01 X334.762 Y331.354 Z-4.897
G01 X331.959 Y334.207 Z-4.711
G01 X329.06 Y336.964 Z-4.533
G01 X326.069 Y339.62 Z-4.45
G01 X322.989 Y342.173 Z-4.414
G01 X319.825 Y344.62 Z-4.921
G01 X316.579 Y346.958 Z-6.243
G01 X313.255 Y349.184 Z-7.546
G01 X312.039 Y349.94 Z-8
G01 X309.858 Y351.296
G01 X306.39 Y353.291
G01 X302.857 Y355.167
G01 X299.263 Y356.922
G01 X295.61 Y358.553
G01 X291.905 Y360.06
G01 X288.15 Y361.44
G01 X284.351 Y362.692
G01 X280.511 Y363.814
G01 X276.636 Y364.805
G01 X272.729 Y365.664
G01 X268.795 Y366.39
G01 X265.836 Y366.832
G01 X264.839 Y366.982 Z-7.681
G01 X260.865 Y367.439 Z-6.381
G01 X256.877 Y367.762 Z-5.796
G01 X252.882 Y367.949 Z-5.805
G01 X248.882 Y368 Z-6.502
G01 X244.882 Y367.916 Z-7.562
G01 X243.083 Y367.817 Z-8
G01 X240.888 Y367.697
G01 X236.904 Y367.342
G01 X232.933 Y366.852
G01 X228.982 Y366.228
G01 X225.054 Y365.471
G01 X221.154 Y364.581
G01 X217.287 Y363.56
G01 X213.456 Y362.409
G01 X209.666 Y361.128
G01 X205.922 Y359.72
G01 X202.227 Y358.186
G01 X198.587 Y356.528
G01 X195.004 Y354.748
G01 X191.484 Y352.848
G01 X188.03 Y350.83
G01 X184.647 Y348.696
G01 X182.029 Y346.919
G01 X181.337 Y346.449 Z-7.785
G01 X178.105 Y344.092 Z-6.648
G01 X174.955 Y341.627 Z-5.428
G01 X171.89 Y339.057 Z-4.736
G01 X168.913 Y336.385 Z-4.825
G01 X166.028 Y333.614 Z-5.851
G01 X163.238 Y330.747 Z-6.868
G01 X160.547 Y327.787 Z-7.763
G01 X159.713 Y326.806 Z-8
G01 X157.957 Y324.739
G01 X155.471 Y321.604
G01 X153.092 Y318.388
G01 X150.824 Y315.094
G01 X148.667 Y311.724
G01 X146.626 Y308.284
G01 X144.912 Y305.161
G01 X144.701 Y304.778 Z-7.923
G01 X142.896 Y301.208 Z-7.057
G01 X141.212 Y297.579 Z-6.062
G01 X139.651 Y293.896 Z-4.969
G01 X138.215 Y290.162 Z-3.899
G01 X136.906 Y286.383 Z-3.102
G01 X135.725 Y282.561 Z-2.851
G01 X134.673 Y278.701 Z-2.948
G01 X133.751 Y274.809 Z-3.44
G01 X132.961 Y270.887 Z-3.86
G01 X132.304 Y266.941 Z-4.229
G01 X131.779 Y262.976 Z-4.506
G01 X131.388 Y258.995 Z-5.166
G01 X131.132 Y255.003 Z-6.174
G01 X131.009 Y251.004 Z-7.123
G01 X131.021 Y247.004 Z-7.994
G01 X131.022 Y246.974 Z-8
G01 X131.168 Y243.006
G01 X131.448 Y239.016
G01 X131.863 Y235.037
G01 X132.411 Y231.075
G01 X133.092 Y227.133
G01 X133.905 Y223.216
G01 X134.848 Y219.329
G01 X135.922 Y215.476
G01 X137.125 Y211.66
G01 X138.454 Y207.888
G01 X139.91 Y204.162
G01 X141.49 Y200.486
G01 X143.192 Y196.866
G01 X145.014 Y193.305
G01 X146.955 Y189.808
G01 X149.012 Y186.377
G01 X151.183 Y183.017
G01 X153.465 Y179.731
G01 X155.856 Y176.524
G01 X158.353 Y173.399
G01 X160.953 Y170.359
G01 X163.654 Y167.408
G01 X166.452 Y164.549
G01 X169.344 Y161.786
G01 X172.327 Y159.12
G01 X175.397 Y156.556
G01 X175.986 Y156.096
G01 X178.551 Y154.096 Z-6.854
G01 X181.786 Y151.743 Z-5.437
G01 X185.098 Y149.499 Z-4.78
G01 X188.483 Y147.368 Z-4.822
G01 X191.937 Y145.35 Z-5.82
G01 X195.457 Y143.449 Z-6.942
G01 X198.98 Y141.696 Z-8
G01 X199.038 Y141.667
G01 X202.677 Y140.006
G01 X206.369 Y138.467
G01 X210.111 Y137.052
G01 X213.898 Y135.763
G01 X217.726 Y134.601
G01 X221.59 Y133.568
G01 X225.487 Y132.664
G01 X229.412 Y131.89
G01 X233.36 Y131.248
G01 X237.328 Y130.738
G01 X241.31 Y130.361
G01 X245.303 Y130.116
G01 X249.301 Y130.005
G01 X253.302 Y130.027
G01 X257.299 Y130.183
G01 X261.289 Y130.472
G01 X265.267 Y130.893
G01 X266.192 Y131.022
G01 X269.228 Y131.446 Z-7.032
G01 X273.169 Y132.132 Z-6.017
G01 X277.085 Y132.948 Z-5.781
G01 X280.972 Y133.894 Z-5.828
G01 X284.825 Y134.969 Z-5.672
G01 X288.641 Y136.171 Z-5.321
G01 X292.414 Y137.5 Z-4.792
G01 X296.14 Y138.953 Z-4.11
G01 X299.817 Y140.53 Z-3.446
G01 X303.439 Y142.228 Z-3.318
G01 X307.002 Y144.046
G01 X310.503 Y145.981 Z-4.157
G01 X313.938 Y148.031 Z-5.271
G01 X317.303 Y150.194 Z-6.287
G01 X320.594 Y152.468 Z-7.176
G01 X323.808 Y154.85 Z-7.905
G01 X324.363 Y155.292 Z-8
G01 X326.94 Y157.338
G01 X329.989 Y159.928
G01 X332.95 Y162.618
G01 X335.819 Y165.405
G01 X338.595 Y168.285
G01 X341.274 Y171.256
G01 X343.852 Y174.314
G01 X346.328 Y177.456
G01 X348.698 Y180.679
G01 X350.96 Y183.978
G01 X353.112 Y187.351
G01 X355.15 Y190.792
G01 X357.073 Y194.3
G01 X358.879 Y197.869
G01 X360.566 Y201.497
G01 X362.131 Y205.178
G01 X363.574 Y208.909
G01 X364.892 Y212.686
G01 X366.085 Y216.504
G01 X367.15 Y220.36
G01 X368.088 Y224.248
G01 X368.896 Y228.166
G01 X369.574 Y232.109
G01 X370.121 Y236.071
G01 X370.537 Y240.05
G01 X370.821 Y244.04
G01 X370.898 Y246.048
G01 X370.973 Y248.037 Z-7.663
G01 X370.993 Y252.037 Z-6.854
G01 X370.881 Y256.036 Z-5.939
G01 X370.636 Y260.029 Z-5.434
G01 X370.26 Y264.011 Z-5.43
G01 X369.752 Y267.979 Z-6.307
G01 X369.114 Y271.928 Z-7.393
G01 X368.662 Y274.235 Z-8
G01 X368.345 Y275.854
G01 X367.448 Y279.752
G01 X366.422 Y283.618
G01 X365.269 Y287.449
G01 X363.99 Y291.239
G01 X362.587 Y294.985
G01 X361.061 Y298.683
G01 X359.414 Y302.328
G01 X357.647 Y305.917
G01 X355.764 Y309.446
G01 X353.765 Y312.911
G01 X351.652 Y316.308
G01 X349.454 Y319.597
G01 X349.429 Y319.634 Z-7.993
G01 X347.098 Y322.885 Z-7.354
G01 X344.661 Y326.057 Z-6.792
G01 X342.121 Y329.147 Z-6.349
G01 X339.48 Y332.151 Z-5.827
G01 X336.742 Y335.068 Z-5.132
G01 X333.909 Y337.892 Z-4.646
G01 X330.985 Y340.622 Z-4.194
G01 X327.972 Y343.253 Z-3.97
G01 X324.875 Y345.785 Z-4.014
G01 X321.696 Y348.213 Z-5.022
G01 X318.439 Y350.535 Z-6.335
G01 X315.107 Y352.749 Z-7.628
G01 X314.106 Y353.368 Z-8
G01 X311.704 Y354.852
G01 X308.234 Y356.842
G01 X304.7 Y358.717
G01 X301.107 Y360.475
G01 X297.458 Y362.114
G01 X293.757 Y363.632
G01 X290.008 Y365.027
G01 X286.215 Y366.299
G01 X282.383 Y367.445
G01 X278.515 Y368.466
G01 X274.616 Y369.358
G01 X270.689 Y370.122
G01 X266.74 Y370.757
G01 X266.466 Y370.792
G01 X262.771 Y371.262 Z-6.805
G01 X258.789 Y371.636 Z-5.66
G01 X254.796 Y371.88 Z-5.588
G01 X250.797 Y371.993 Z-5.986
G01 X246.797 Y371.974 Z-7.083
G01 X243.227 Y371.841 Z-8
G01 X242.8 Y371.825
G01 X238.809 Y371.544
G01 X234.83 Y371.133
G01 X230.867 Y370.591
G01 X226.923 Y369.92
G01 X223.004 Y369.121
G01 X219.113 Y368.193
G01 X215.254 Y367.139
G01 X211.432 Y365.958
G01 X207.65 Y364.654
G01 X203.914 Y363.226
G01 X200.226 Y361.677
G01 X196.59 Y360.007
G01 X193.011 Y358.22
G01 X189.493 Y356.317
G01 X186.039 Y354.3
G01 X182.652 Y352.171
G01 X179.337 Y349.932
G01 X177.312 Y348.467
G01 X176.097 Y347.586 Z-7.543
G01 X172.935 Y345.136 Z-6.259
G01 X169.855 Y342.584 Z-5.341
G01 X166.86 Y339.932 Z-5.327
G01 X163.953 Y337.184 Z-6.171
G01 X161.137 Y334.343 Z-7.276
G01 X159.179 Y332.233 Z-8
G01 X158.416 Y331.411
G01 X155.791 Y328.392
G01 X153.267 Y325.289
G01 X150.845 Y322.105
G01 X148.529 Y318.843
G01 X146.32 Y315.508
G01 X144.221 Y312.103
G01 X142.234 Y308.631
G01 X140.361 Y305.096
G01 X139.698 Y303.739
G01 X138.605 Y301.502 Z-7.381
G01 X136.967 Y297.853 Z-6.285
G01 X135.448 Y294.152 Z-5.111
G01 X134.051 Y290.404 Z-3.881
G01 X132.777 Y286.612 Z-2.851
G01 X131.627 Y282.781
G01 X130.602 Y278.914 Z-2.927
G01 X129.704 Y275.016 Z-3.546
G01 X128.933 Y271.091 Z-3.979
G01 X128.29 Y267.143 Z-4.254
G01 X127.776 Y263.175 Z-4.506
G01 X127.391 Y259.194 Z-5.135
G01 X127.137 Y255.202 Z-6.053
G01 X127.012 Y251.203 Z-6.895
G01 X127.017 Y247.203 Z-7.631
G01 X127.099 Y244.766 Z-8
G01 X127.152 Y243.205
G01 X127.417 Y239.214
G01 X127.812 Y235.233
G01 X128.336 Y231.267
G01 X128.988 Y227.321
G01 X129.769 Y223.397
G01 X130.676 Y219.502
G01 X131.71 Y215.637
G01 X131.915 Y214.957
G01 X132.868 Y211.808 Z-7.46
G01 X134.15 Y208.019 Z-7.262
G01 X135.554 Y204.273 Z-7.89
G01 X135.862 Y203.528 Z-8
G01 X137.08 Y200.575
G01 X138.724 Y196.929
G01 X140.486 Y193.337
G01 X142.363 Y189.805
G01 X144.354 Y186.336
G01 X146.457 Y182.933
G01 X148.668 Y179.599
G01 X150.987 Y176.34
G01 X153.41 Y173.157
G01 X155.935 Y170.054
G01 X158.559 Y167.035
G01 X161.279 Y164.102
G01 X164.093 Y161.259
G01 X166.998 Y158.509
G01 X169.99 Y155.854
G01 X173.067 Y153.297
G01 X173.658 Y152.837
G01 X176.224 Y150.841 Z-6.849
G01 X179.46 Y148.489 Z-5.431
G01 X182.77 Y146.243 Z-4.386
G01 X186.151 Y144.105 Z-4.216
G01 X189.599 Y142.077 Z-4.961
G01 X193.111 Y140.162 Z-6.02
G01 X196.683 Y138.361 Z-7.029
G01 X200.311 Y136.677 Z-7.97
G01 X200.438 Y136.624 Z-8
G01 X203.992 Y135.111
G01 X207.722 Y133.665
G01 X211.497 Y132.341
G01 X215.312 Y131.138
G01 X219.164 Y130.06
G01 X223.049 Y129.107
G01 X226.963 Y128.279
G01 X230.901 Y127.579
G01 X234.86 Y127.006
G01 X238.835 Y126.561
G01 X242.823 Y126.244
G01 X246.819 Y126.057
G01 X250.819 Y125.998
G01 X254.818 Y126.068
G01 X258.813 Y126.268
G01 X262.8 Y126.596
G01 X266.774 Y127.052
G01 X268.061 Y127.242
G01 X270.732 Y127.637 Z-7.143
G01 X274.668 Y128.348 Z-6.708
G01 X278.579 Y129.186 Z-6.808
G01 X282.462 Y130.15 Z-6.829
G01 X286.311 Y131.238 Z-6.635
G01 X290.124 Y132.449 Z-6.235
G01 X293.895 Y133.783 Z-5.655
G01 X297.621 Y135.238 Z-4.921
G01 X301.299 Y136.811 Z-4.059
G01 X304.924 Y138.502 Z-3.488
G01 X308.493 Y140.309 Z-3.588
G01 X312.002 Y142.23 Z-4.716
G01 X315.447 Y144.263 Z-5.911
G01 X318.825 Y146.405 Z-7.024
G01 X322.037 Y148.591 Z-8
G01 X322.133 Y148.655
G01 X325.366 Y151.011
G01 X328.522 Y153.469
G01 X331.597 Y156.027
G01 X334.589 Y158.682
G01 X337.493 Y161.433
G01 X340.308 Y164.275
G01 X343.03 Y167.206
G01 X345.657 Y170.223
G01 X348.185 Y173.323
G01 X350.612 Y176.503
G01 X352.937 Y179.759
G01 X355.155 Y183.087
G01 X357.265 Y186.486
G01 X359.266 Y189.95
G01 X361.154 Y193.476
G01 X362.928 Y197.061
G01 X364.586 Y200.702
G01 X366.127 Y204.393
G01 X367.548 Y208.133
G01 X368.849 Y211.915
G01 X370.028 Y215.738
G01 X371.084 Y219.596
G01 X372.016 Y223.486
G01 X372.823 Y227.404
G01 X373.503 Y231.346
G01 X374.058 Y235.308
G01 X374.485 Y239.285
G01 X374.784 Y243.274
G01 X374.927 Y246.602
G01 X374.956 Y247.271 Z-7.887
G01 X374.999 Y251.271 Z-7.09
G01 X374.915 Y255.27 Z-6.19
G01 X374.703 Y259.265 Z-5.226
G01 X374.363 Y263.25 Z-5.212
G01 X373.896 Y267.223 Z-5.278
G01 X373.302 Y271.179 Z-6.299
G01 X372.582 Y275.114 Z-7.233
G01 X371.878 Y278.367 Z-8
G01 X371.736 Y279.024
G01 X370.766 Y282.905
G01 X369.673 Y286.752
G01 X368.457 Y290.563
G01 X367.12 Y294.333
G01 X365.663 Y298.059
G01 X364.088 Y301.736
G01 X362.396 Y305.361
G01 X360.59 Y308.93
G01 X358.67 Y312.44
G01 X356.64 Y315.886
G01 X354.5 Y319.266
G01 X352.254 Y322.576
G01 X349.904 Y325.813
G01 X348.569 Y327.533
G01 X347.451 Y328.973 Z-7.925
G01 X344.899 Y332.053 Z-7.532
G01 X342.25 Y335.051 Z-6.935
G01 X339.506 Y337.962 Z-6.165
G01 X336.672 Y340.784 Z-5.253
G01 X333.748 Y343.515 Z-4.288
G01 X330.74 Y346.151 Z-3.964
G01 X327.649 Y348.69
G01 X324.478 Y351.129 Z-4.6
G01 X321.232 Y353.466 Z-5.89
G01 X317.912 Y355.699 Z-7.16
G01 X315.623 Y357.135 Z-8
G01 X314.524 Y357.825
G01 X311.069 Y359.841
G01 X307.552 Y361.747
G01 X303.976 Y363.54
G01 X300.345 Y365.218
G01 X296.662 Y366.78
G01 X292.932 Y368.224
G01 X289.157 Y369.548
G01 X285.342 Y370.752
G01 X281.491 Y371.834
G01 X277.608 Y372.793
G01 X273.696 Y373.628
G01 X269.759 Y374.339
G01 X267.745 Y374.637
G01 X265.802 Y374.924 Z-7.393
G01 X261.828 Y375.383 Z-6.127
G01 X257.842 Y375.715 Z-5.342
G01 X253.847 Y375.921 Z-5.351
G01 X249.847 Y376 Z-6.094
G01 X245.847 Y375.952 Z-7.16
G01 X242.476 Y375.804 Z-8
G01 X241.851 Y375.777
G01 X237.862 Y375.475
G01 X233.885 Y375.047
G01 X229.923 Y374.493
G01 X225.981 Y373.813
G01 X222.063 Y373.009
G01 X218.172 Y372.081
G01 X214.312 Y371.03
G01 X210.488 Y369.857
G01 X206.702 Y368.564
G01 X202.96 Y367.151
G01 X199.264 Y365.621
G01 X195.618 Y363.974
G01 X192.027 Y362.213
G01 X188.493 Y360.338
G01 X185.02 Y358.353
G01 X181.612 Y356.259
G01 X178.272 Y354.058
G01 X175.003 Y351.752
G01 X173.362 Y350.515
G01 X171.809 Y349.344 Z-7.351
G01 X168.692 Y346.836 Z-5.986
G01 X165.657 Y344.231 Z-5.767
G01 X162.705 Y341.531 Z-6.003
G01 X159.84 Y338.74 Z-7.163
G01 X157.773 Y336.594 Z-8
G01 X157.065 Y335.859
G01 X154.382 Y332.891
G01 X151.795 Y329.841
G01 X149.305 Y326.71
G01 X146.915 Y323.502
G01 X144.628 Y320.22
G01 X142.446 Y316.868
G01 X140.37 Y313.448
G01 X138.404 Y309.964
G01 X136.548 Y306.42
G01 X135.114 Y303.457
G01 X134.806 Y302.82 Z-7.81
G01 X133.178 Y299.166 Z-6.654
G01 X131.666 Y295.462 Z-5.436
G01 X130.271 Y291.713 Z-4.172
G01 X128.996 Y287.922 Z-3.244
G01 X127.841 Y284.092 Z-3.027
G01 X126.807 Y280.228 Z-3.691
G01 X125.896 Y276.333 Z-4.338
G01 X125.107 Y272.411 Z-4.823
G01 X124.443 Y268.466 Z-5.128
G01 X123.904 Y264.502 Z-5.24
G01 X123.489 Y260.524 Z-5.737
G01 X123.201 Y256.534 Z-6.602
G01 X123.038 Y252.537 Z-7.315
G01 X123.001 Y248.537 Z-7.846
G01 X123.031 Y247.183 Z-8
G01 X123.09 Y244.538
G01 X123.304 Y240.543
G01 X123.645 Y236.558
G01 X124.111 Y232.585
G01 X124.701 Y228.628
G01 X125.416 Y224.693
G01 X125.764 Y223.069
G01 X126.255 Y220.781 Z-7.859
G01 X127.215 Y216.898 Z-7.481
G01 X128.298 Y213.047 Z-6.952
G01 X129.501 Y209.232 Z-6.314
G01 X130.824 Y205.457 Z-6.2
G01 X132.264 Y201.725 Z-6.75
G01 X133.821 Y198.041 Z-7.263
G01 X135.117 Y195.224 Z-8
G01 X135.494 Y194.407
G01 X137.279 Y190.827
G01 X139.176 Y187.305
G01 X141.183 Y183.845
G01 X143.298 Y180.449
G01 X145.518 Y177.122
G01 X147.841 Y173.865
G01 X150.266 Y170.684
G01 X152.789 Y167.58
G01 X155.408 Y164.556
G01 X158.121 Y161.617
G01 X160.925 Y158.764
G01 X163.817 Y156
G01 X166.794 Y153.328
G01 X169.854 Y150.751
G01 X170.891 Y149.932
G01 X172.993 Y148.272 Z-7.063
G01 X176.208 Y145.892 Z-5.665
G01 X179.496 Y143.613 Z-4.267
G01 X182.854 Y141.439 Z-3.87
G01 X186.278 Y139.372 Z-3.884
G01 X189.766 Y137.412 Z-4.729
G01 X193.313 Y135.563 Z-5.69
G01 X196.916 Y133.826 Z-6.588
G01 X200.572 Y132.202 Z-7.408
G01 X203.621 Y130.961 Z-8
G01 X204.277 Y130.694
G01 X208.027 Y129.302
G01 X211.819 Y128.029
G01 X215.649 Y126.875
G01 X219.514 Y125.841
G01 X223.408 Y124.928
G01 X227.33 Y124.138
G01 X231.274 Y123.471
G01 X235.237 Y122.928
G01 X239.215 Y122.508
G01 X243.204 Y122.214
G01 X247.201 Y122.044
G01 X251.201 Y121.999
G01 X255.2 Y122.079
G01 X259.195 Y122.284
G01 X263.182 Y122.614
G01 X267.156 Y123.068
G01 X269.984 Y123.481
G01 X271.114 Y123.646 Z-7.724
G01 X275.053 Y124.347 Z-7.469
G01 X278.967 Y125.171 Z-7.708
G01 X282.854 Y126.117 Z-7.767
G01 X286.709 Y127.184 Z-7.591
G01 X290.53 Y128.37 Z-7.195
G01 X294.311 Y129.675 Z-6.607
G01 X298.05 Y131.097 Z-5.861
G01 X301.743 Y132.635 Z-4.986
G01 X305.385 Y134.288 Z-4.115
G01 X308.975 Y136.053 Z-4.043
G01 X312.508 Y137.929 Z-4.773
G01 X315.98 Y139.915 Z-6.053
G01 X319.39 Y142.008 Z-7.278
G01 X321.494 Y143.392 Z-8
G01 X322.732 Y144.206
G01 X326.004 Y146.507
G01 X329.203 Y148.909
G01 X332.325 Y151.409
G01 X335.368 Y154.005
G01 X338.329 Y156.695
G01 X341.205 Y159.476
G01 X343.992 Y162.345
G01 X346.689 Y165.299
G01 X349.293 Y168.336
G01 X351.801 Y171.452
G01 X354.211 Y174.645
G01 X356.52 Y177.911
G01 X358.727 Y181.248
G01 X360.829 Y184.651
G01 X362.824 Y188.118
G01 X364.711 Y191.646
G01 X366.486 Y195.23
G01 X368.15 Y198.868
G01 X369.7 Y202.556
G01 X371.134 Y206.29
G01 X372.452 Y210.067
G01 X373.652 Y213.883
G01 X374.733 Y217.734
G01 X375.694 Y221.617
G01 X376.533 Y225.528
G01 X377.251 Y229.464
G01 X377.847 Y233.419
G01 X378.319 Y237.391
G01 X378.668 Y241.376
G01 X378.894 Y245.37
G01 X378.905 Y245.82
G01 X378.995 Y249.369 Z-7.352
G01 X378.972 Y253.369 Z-6.513
G01 X378.825 Y257.367 Z-5.584
G01 X378.555 Y261.358 Z-5.212
G01 X378.161 Y265.338
G01 X377.643 Y269.305 Z-5.843
G01 X377.003 Y273.254 Z-6.8
G01 X376.242 Y277.181 Z-7.625
G01 X375.824 Y279.026 Z-8
G01 X375.358 Y281.082
G01 X374.355 Y284.954
G01 X373.232 Y288.794
G01 X371.99 Y292.596
G01 X370.632 Y296.359
G01 X369.157 Y300.077
G01 X367.569 Y303.749
G01 X365.867 Y307.369
G01 X364.055 Y310.935
G01 X362.133 Y314.443
G01 X360.103 Y317.89
G01 X357.968 Y321.273
G01 X355.729 Y324.588
G01 X353.389 Y327.832
G01 X350.949 Y331.002
G01 X348.413 Y334.096
G01 X345.782 Y337.109
G01 X345.181 Y337.757
G01 X343.06 Y340.04 Z-7.368
G01 X340.248 Y342.885 Z-6.414
G01 X337.35 Y345.643 Z-5.349
G01 X334.368 Y348.309 Z-4.2
G01 X331.305 Y350.882 Z-3.964
G01 X328.164 Y353.359 Z-4.04
G01 X324.949 Y355.738 Z-4.945
G01 X321.661 Y358.017 Z-6.184
G01 X318.305 Y360.193 Z-7.395
G01 X316.54 Y361.261 Z-8
G01 X314.883 Y362.265
G01 X311.398 Y364.23
G01 X307.855 Y366.087
G01 X304.257 Y367.834
G01 X300.606 Y369.468
G01 X296.906 Y370.99
G01 X293.161 Y372.396
G01 X289.375 Y373.687
G01 X285.551 Y374.86
G01 X281.692 Y375.915
G01 X277.803 Y376.851
G01 X273.887 Y377.666
G01 X269.947 Y378.361
G01 X269.687 Y378.398
G01 X265.988 Y378.933 Z-6.886
G01 X262.014 Y379.384 Z-5.663
G01 X258.027 Y379.712 Z-4.774
G01 X254.032 Y379.917 Z-4.849
G01 X250.033 Y379.999 Z-5.721
G01 X246.033 Y379.959 Z-6.758
G01 X242.036 Y379.795 Z-7.725
G01 X240.783 Y379.704 Z-8
G01 X238.046 Y379.508
G01 X234.067 Y379.098
G01 X230.102 Y378.567
G01 X226.156 Y377.914
G01 X222.231 Y377.139
G01 X218.332 Y376.245
G01 X214.463 Y375.231
G01 X210.626 Y374.099
G01 X206.826 Y372.849
G01 X203.066 Y371.483
G01 X199.35 Y370.003
G01 X195.681 Y368.409
G01 X192.063 Y366.703
G01 X188.499 Y364.887
G01 X184.992 Y362.962
G01 X181.546 Y360.931
G01 X178.164 Y358.795
G01 X174.849 Y356.556
G01 X171.604 Y354.216
G01 X169.981 Y352.969
G01 X168.433 Y351.778 Z-7.318
G01 X165.338 Y349.244 Z-6.147
G01 X162.322 Y346.616 Z-6.07
G01 X159.388 Y343.897 Z-6.46
G01 X156.538 Y341.09 Z-7.676
G01 X155.764 Y340.279 Z-8
G01 X153.777 Y338.196
G01 X151.105 Y335.219
G01 X148.525 Y332.162
G01 X146.04 Y329.027
G01 X143.653 Y325.817
G01 X141.365 Y322.536
G01 X139.179 Y319.186
G01 X137.096 Y315.771
G01 X135.118 Y312.294
G01 X133.248 Y308.757
G01 X131.487 Y305.166
G01 X130.957 Y303.994
G01 X129.837 Y301.522 Z-7.198
G01 X128.299 Y297.829 Z-5.963
G01 X126.875 Y294.091 Z-4.69
G01 X125.566 Y290.311 Z-3.898
G01 X124.373 Y286.493 Z-3.807
G01 X123.297 Y282.64 Z-4.544
G01 X122.339 Y278.756 Z-5.308
G01 X121.501 Y274.845 Z-5.917
G01 X120.782 Y270.91 Z-6.343
G01 X120.185 Y266.955 Z-6.569
G01 X119.708 Y262.983 Z-6.585
G01 X119.353 Y258.998 Z-7.018
G01 X119.119 Y255.005 Z-7.887
G01 X119.102 Y254.372 Z-8
G01 X119.008 Y251.006
G01 X119.019 Y247.006
G01 X119.152 Y243.008
G01 X119.407 Y239.016
G01 X119.784 Y235.034
G01 X120.282 Y231.065
G01 X120.901 Y227.113
G01 X121.314 Y224.915
G01 X121.64 Y223.181 Z-7.853
G01 X122.499 Y219.275 Z-7.53
G01 X123.476 Y215.396 Z-7.041
G01 X124.572 Y211.548 Z-6.489
G01 X125.784 Y207.736 Z-5.938
G01 X127.111 Y203.963 Z-5.662
G01 X128.554 Y200.232
G01 X130.109 Y196.546 Z-6.449
G01 X131.776 Y192.91 Z-7.779
G01 X132.065 Y192.325 Z-8
G01 X133.552 Y189.326
G01 X135.438 Y185.798
G01 X137.429 Y182.329
G01 X139.526 Y178.922
G01 X141.725 Y175.58
G01 X144.025 Y172.307
G01 X146.423 Y169.106
G01 X148.918 Y165.979
G01 X151.507 Y162.93
G01 X154.187 Y159.96
G01 X156.957 Y157.074
G01 X159.813 Y154.273
G01 X162.752 Y151.56
G01 X165.773 Y148.938
G01 X167.67 Y147.39
G01 X168.873 Y146.409 Z-7.474
G01 X172.047 Y143.975 Z-6.114
G01 X175.295 Y141.639 Z-4.751
G01 X178.611 Y139.403 Z-3.87
G01 X181.994 Y137.269
G01 X185.441 Y135.238 Z-3.94
G01 X188.947 Y133.313 Z-4.5
G01 X192.511 Y131.495 Z-5.103
G01 X196.128 Y129.787 Z-5.743
G01 X199.795 Y128.189 Z-6.469
G01 X203.509 Y126.703 Z-7.097
G01 X207.266 Y125.33 Z-7.608
G01 X211.063 Y124.072 Z-7.983
G01 X211.264 Y124.012 Z-8
G01 X214.897 Y122.93
G01 X218.764 Y121.905
G01 X222.66 Y120.998
G01 X226.581 Y120.209
G01 X230.525 Y119.539
G01 X234.487 Y118.99
G01 X238.464 Y118.56
G01 X242.453 Y118.252
G01 X246.448 Y118.064
G01 X250.448 Y117.998
G01 X254.448 Y118.053
G01 X258.444 Y118.229
G01 X262.433 Y118.526
G01 X266.412 Y118.944
G01 X270.375 Y119.482
G01 X274.321 Y120.14
G01 X278.245 Y120.916
G01 X282.144 Y121.812
G01 X286.014 Y122.825
G01 X289.851 Y123.954
G01 X291.105 Y124.365
G01 X293.653 Y125.2 Z-7.635
G01 X297.415 Y126.559 Z-6.919
G01 X301.134 Y128.032 Z-6.065
G01 X304.807 Y129.617 Z-5.102
G01 X308.43 Y131.311 Z-4.503
G01 X312 Y133.115 Z-4.63
G01 X315.515 Y135.026 Z-5.617
G01 X318.97 Y137.042 Z-6.936
G01 X321.798 Y138.809 Z-8
G01 X322.362 Y139.162
G01 X325.689 Y141.383
G01 X328.947 Y143.704
G01 X332.134 Y146.122
G01 X335.246 Y148.635
G01 X338.281 Y151.241
G01 X341.235 Y153.937
G01 X344.107 Y156.722
G01 X346.894 Y159.592
G01 X349.593 Y162.544
G01 X352.201 Y165.577
G01 X354.717 Y168.687
G01 X357.138 Y171.872
G01 X359.461 Y175.128
G01 X361.685 Y178.453
G01 X363.808 Y181.843
G01 X365.828 Y185.296
G01 X367.743 Y188.808
G01 X369.551 Y192.376
G01 X371.251 Y195.997
G01 X372.841 Y199.668
G01 X374.319 Y203.385
G01 X375.685 Y207.145
G01 X376.937 Y210.944
G01 X378.074 Y214.779
G01 X379.095 Y218.647
G01 X379.999 Y222.544
G01 X380.786 Y226.466
G01 X381.454 Y230.41
G01 X382.003 Y234.372
G01 X382.432 Y238.349
G01 X382.742 Y242.337
G01 X382.793 Y243.412
G01 X382.931 Y246.333 Z-7.565
G01 X383.001 Y250.332 Z-6.84
G01 X382.95 Y254.332 Z-6.009
G01 X382.778 Y258.329 Z-5.288
G01 X382.487 Y262.318
G01 X382.076 Y266.297 Z-5.492
G01 X381.545 Y270.262 Z-6.575
G01 X380.896 Y274.209 Z-7.563
G01 X380.508 Y276.196 Z-8
G01 X380.128 Y278.135
G01 X379.243 Y282.036
G01 X378.241 Y285.909
G01 X377.123 Y289.75
G01 X375.89 Y293.555
G01 X374.543 Y297.322
G01 X373.084 Y301.046
G01 X371.514 Y304.726
G01 X369.834 Y308.356
G01 X368.046 Y311.934
G01 X366.152 Y315.457
G01 X364.152 Y318.922
G01 X362.05 Y322.325
G01 X359.846 Y325.663
G01 X357.543 Y328.934
G01 X355.144 Y332.135
G01 X352.649 Y335.262
G01 X350.062 Y338.313
G01 X347.384 Y341.285
G01 X345.208 Y343.559
G01 X344.619 Y344.175 Z-7.794
G01 X341.768 Y346.981 Z-6.711
G01 X338.835 Y349.701 Z-5.545
G01 X335.821 Y352.331 Z-4.313
G01 X332.73 Y354.87 Z-3.935
G01 X329.564 Y357.316
G01 X326.327 Y359.665 Z-4.76
G01 X323.02 Y361.917 Z-5.939
G01 X319.648 Y364.068 Z-7.082
G01 X316.772 Y365.784 Z-8
G01 X316.213 Y366.118
G01 X312.718 Y368.064
G01 X309.166 Y369.904
G01 X305.561 Y371.638
G01 X301.906 Y373.263
G01 X298.204 Y374.777
G01 X294.458 Y376.181
G01 X290.672 Y377.472
G01 X286.848 Y378.649
G01 X282.992 Y379.711
G01 X279.105 Y380.657
G01 X275.192 Y381.487
G01 X272.452 Y381.983
G01 X271.256 Y382.2 Z-7.676
G01 X267.3 Y382.795 Z-6.556
G01 X263.329 Y383.271 Z-5.395
G01 X259.344 Y383.629 Z-4.369
G01 X255.351 Y383.867 Z-4.322
G01 X251.353 Y383.986 Z-4.906
G01 X247.353 Z-5.92
G01 X243.354 Y383.866 Z-6.867
G01 X239.361 Y383.627 Z-7.73
G01 X237.934 Y383.499 Z-8
G01 X235.377 Y383.269
G01 X231.406 Y382.793
G01 X227.45 Y382.198
G01 X223.514 Y381.485
G01 X219.6 Y380.655
G01 X215.714 Y379.709
G01 X211.857 Y378.648
G01 X208.034 Y377.472
G01 X204.247 Y376.182
G01 X200.5 Y374.781
G01 X196.797 Y373.268
G01 X193.141 Y371.645
G01 X189.534 Y369.915
G01 X185.981 Y368.078
G01 X182.484 Y366.136
G01 X179.046 Y364.09
G01 X175.671 Y361.943
G01 X172.361 Y359.697
G01 X169.12 Y357.353
G01 X167.079 Y355.783
G01 X165.949 Y354.914 Z-7.492
G01 X162.853 Y352.381 Z-6.335
G01 X159.833 Y349.757 Z-6.278
G01 X156.893 Y347.045 Z-6.432
G01 X154.035 Y344.247 Z-7.665
G01 X153.25 Y343.432 Z-8
G01 X151.261 Y341.364
G01 X148.574 Y338.401
G01 X145.976 Y335.359
G01 X143.47 Y332.241
G01 X141.058 Y329.05
G01 X138.742 Y325.789
G01 X136.523 Y322.46
G01 X134.405 Y319.067
G01 X132.388 Y315.613
G01 X130.474 Y312.1
G01 X128.666 Y308.532
G01 X127.093 Y305.185
G01 X126.965 Y304.911 Z-7.911
G01 X125.371 Y301.242 Z-6.687
G01 X123.888 Y297.527 Z-5.424
G01 X122.515 Y293.77 Z-4.584
G01 X121.254 Y289.974 Z-4.425
G01 X120.107 Y286.142 Z-4.998
G01 X119.074 Y282.277 Z-5.919
G01 X118.155 Y278.384 Z-6.703
G01 X117.353 Y274.465 Z-7.32
G01 X116.667 Y270.524 Z-7.74
G01 X116.099 Y266.564 Z-7.938
G01 X115.648 Y262.59 Z-7.901
G01 X115.431 Y259.998 Z-8
G01 X115.315 Y258.603
G01 X115.1 Y254.609
G01 X115.004 Y250.61
G01 X115.026 Y246.61
G01 X115.167 Y242.612
G01 X115.426 Y238.62
G01 X115.803 Y234.638
G01 X116.298 Y230.669
G01 X116.911 Y226.716
G01 X117.638 Y222.793
G01 X117.64 Y222.782 Z-7.997
G01 X118.485 Y218.873 Z-7.78
G01 X119.446 Y214.989 Z-7.426
G01 X120.521 Y211.136 Z-6.915
G01 X121.709 Y207.317 Z-6.232
G01 X123.01 Y203.534 Z-5.662
G01 X124.422 Y199.792 Z-5.643
G01 X125.945 Y196.093 Z-5.658
G01 X127.576 Y192.44 Z-6.838
G01 X129.136 Y189.208 Z-8
G01 X129.314 Y188.837
G01 X131.159 Y185.288
G01 X133.107 Y181.794
G01 X135.158 Y178.359
G01 X137.309 Y174.987
G01 X139.559 Y171.68
G01 X141.905 Y168.44
G01 X144.347 Y165.271
G01 X146.881 Y162.176
G01 X149.505 Y159.157
G01 X152.217 Y156.217
G01 X155.015 Y153.358
G01 X157.896 Y150.582
G01 X160.858 Y147.894
G01 X163.897 Y145.293
G01 X163.961 Y145.241
G01 X167.012 Y142.784 Z-6.731
G01 X170.2 Y140.367 Z-5.423
G01 X173.458 Y138.046 Z-4.389
G01 X176.782 Y135.821 Z-4.122
G01 X180.171 Y133.696 Z-4.115
G01 X183.621 Y131.672 Z-4.445
G01 X187.13 Y129.75 Z-4.769
G01 X190.693 Y127.932 Z-5.103
G01 X194.308 Y126.22 Z-5.448
G01 X197.973 Y124.616 Z-5.604
G01 X201.682 Y123.12 Z-5.841
G01 X205.435 Y121.734 Z-6.313
G01 X209.226 Y120.459 Z-6.666
G01 X213.054 Y119.296 Z-7.32
G01 X215.256 Y118.698 Z-8
G01 X216.914 Y118.247
G01 X220.803 Y117.312
G01 X224.719 Y116.491
G01 X228.656 Y115.786
G01 X232.613 Y115.198
G01 X236.585 Y114.726
G01 X240.569 Y114.371
G01 X244.563 Y114.134
G01 X248.561 Y114.014
G01 X252.561 Y114.012
G01 X256.56 Y114.127
G01 X260.553 Y114.36
G01 X264.538 Y114.71
G01 X268.511 Y115.178
G01 X272.468 Y115.761
G01 X276.406 Y116.461
G01 X280.323 Y117.276
G01 X284.213 Y118.206
G01 X288.075 Y119.25
G01 X291.904 Y120.407
G01 X295.698 Y121.676
G01 X295.899 Y121.75
G01 X299.452 Y123.056 Z-7.252
G01 X303.165 Y124.545 Z-6.34
G01 X306.832 Y126.142 Z-5.333
G01 X310.451 Y127.847 Z-4.876
G01 X314.018 Y129.657 Z-4.896
G01 X317.531 Y131.571 Z-5.946
G01 X320.986 Y133.587 Z-7.305
G01 X322.757 Y134.691 Z-8
G01 X324.38 Y135.704
G01 X327.711 Y137.919
G01 X330.975 Y140.231
G01 X334.17 Y142.638
G01 X337.294 Y145.137
G01 X340.342 Y147.727
G01 X343.314 Y150.405
G01 X346.205 Y153.169
G01 X349.015 Y156.017
G01 X351.739 Y158.945
G01 X354.377 Y161.953
G01 X356.926 Y165.036
G01 X359.383 Y168.192
G01 X361.747 Y171.419
G01 X364.015 Y174.714
G01 X366.186 Y178.074
G01 X368.257 Y181.496
G01 X370.227 Y184.978
G01 X372.095 Y188.515
G01 X373.859 Y192.105
G01 X375.516 Y195.746
G01 X377.067 Y199.434
G01 X378.509 Y203.165
G01 X379.841 Y206.937
G01 X381.062 Y210.746
G01 X382.172 Y214.589
G01 X383.168 Y218.463
G01 X384.051 Y222.365
G01 X384.82 Y226.29
G01 X385.473 Y230.237
G01 X386.011 Y234.2
G01 X386.433 Y238.178
G01 X386.434 Y238.19
G01 X386.739 Y242.167 Z-7.606
G01 X386.928 Y246.162 Z-7.059
G01 X387 Y250.162 Z-6.381
G01 X386.956 Y254.162 Z-5.596
G01 X386.794 Y258.159 Z-5.048
G01 X386.516 Y262.149 Z-5.139
G01 X386.122 Y266.13 Z-5.72
G01 X385.612 Y270.098 Z-6.861
G01 X384.986 Y274.048 Z-7.923
G01 X384.927 Y274.364 Z-8
G01 X384.245 Y277.979
G01 X383.39 Y281.887
G01 X382.422 Y285.768
G01 X381.34 Y289.619
G01 X380.147 Y293.438
G01 X378.843 Y297.219
G01 X377.429 Y300.961
G01 X375.907 Y304.66
G01 X374.278 Y308.314
G01 X372.542 Y311.918
G01 X370.703 Y315.47
G01 X368.761 Y318.967
G01 X366.718 Y322.406
G01 X364.576 Y325.784
G01 X362.336 Y329.099
G01 X360 Y332.347
G01 X357.572 Y335.525
G01 X355.051 Y338.631
G01 X352.441 Y341.663
G01 X349.745 Y344.617
G01 X346.963 Y347.492
G01 X346.199 Y348.237
G01 X344.099 Y350.284 Z-7.144
G01 X341.155 Y352.993 Z-5.911
G01 X338.133 Y355.614 Z-4.63
G01 X335.037 Y358.146 Z-3.775
G01 X331.868 Y360.588 Z-3.571
G01 X328.63 Y362.936 Z-4.096
G01 X325.324 Y365.189 Z-5.216
G01 X321.955 Y367.345 Z-6.296
G01 X318.524 Y369.402 Z-7.323
G01 X316.055 Y370.786 Z-8
G01 X315.035 Y371.359
G01 X311.491 Y373.213
G01 X307.894 Y374.964
G01 X304.248 Y376.609
G01 X300.556 Y378.148
G01 X296.82 Y379.579
G01 X293.045 Y380.901
G01 X289.233 Y382.113
G01 X285.387 Y383.214
G01 X281.511 Y384.203
G01 X277.608 Y385.079
G01 X276.222 Y385.347
G01 X273.681 Y385.841 Z-7.384
G01 X269.734 Y386.489 Z-6.361
G01 X265.769 Y387.022 Z-5.412
G01 X261.791 Y387.44 Z-4.505
G01 X257.802 Y387.743 Z-4.322
G01 X253.806 Y387.929
G01 X249.807 Y388 Z-4.742
G01 X245.807 Y387.955 Z-5.633
G01 X241.81 Y387.794 Z-6.498
G01 X237.819 Y387.517 Z-7.271
G01 X233.839 Y387.125 Z-7.928
G01 X233.287 Y387.054 Z-8
G01 X229.871 Y386.618
G01 X225.919 Y385.995
G01 X221.987 Y385.259
G01 X218.079 Y384.409
G01 X214.196 Y383.447
G01 X210.343 Y382.372
G01 X206.522 Y381.186
G01 X202.738 Y379.89
G01 X198.992 Y378.486
G01 X195.289 Y376.973
G01 X191.631 Y375.354
G01 X188.022 Y373.63
G01 X184.464 Y371.802
G01 X180.96 Y369.872
G01 X177.514 Y367.842
G01 X174.127 Y365.712
G01 X170.804 Y363.486
G01 X167.546 Y361.165
G01 X164.617 Y358.947
G01 X164.357 Y358.75 Z-7.883
G01 X161.239 Y356.244 Z-6.707
G01 X158.194 Y353.65 Z-6.335
G01 X155.226 Y350.968 Z-6.486
G01 X152.337 Y348.202 Z-7.227
G01 X150.337 Y346.173 Z-8
G01 X149.528 Y345.353
G01 X146.803 Y342.425
G01 X144.164 Y339.419
G01 X141.612 Y336.338
G01 X139.151 Y333.185
G01 X136.782 Y329.962
G01 X134.506 Y326.672
G01 X132.327 Y323.318
